; generated by PrusaSlicer 2.8.0 on 2024-10-19 at 10:43:43 UTC

; 

; external perimeters extrusion width = 0.42mm
; perimeters extrusion width = 0.44mm
; infill extrusion width = 0.44mm
; solid infill extrusion width = 0.44mm
; top infill extrusion width = 0.40mm
; support material extrusion width = 0.36mm
; first layer extrusion width = 0.42mm

M201 X500 Y500 Z100 E5000 ; sets maximum accelerations, mm/sec^2
M203 X500 Y500 Z10 E60 ; sets maximum feedrates, mm / sec
M204 S500 T1000 ; sets acceleration (S) and retract acceleration (R), mm/sec^2
M205 X8.00 Y8.00 Z0.40 E5.00 ; sets the jerk limits, mm/sec
M205 S0 T0 ; sets the minimum extruding and travel feed rate, mm/sec

; printing object BBSimon.stl id:0 copy 0
; stop printing object BBSimon.stl id:0 copy 0

;TYPE:Custom
G90 ; use absolute coordinates
M83 ; extruder relative mode
M104 S150 ; set temporary nozzle temp to prevent oozing during homing
M140 S60 ; set final bed temp
G4 S30 ; allow partial nozzle warmup
G28 ; home all axis
G1 Z50 F240
G1 X2.0 Y10 F3000
M104 S210 ; set final nozzle temp
M190 S60 ; wait for bed temp to stabilize
M109 S210 ; wait for nozzle temp to stabilize
G1 Z0.28 F240
G92 E0
G1 X2.0 Y140 E10 F1500 ; prime the nozzle
G1 X2.3 Y140 F5000
G92 E0
G1 X2.3 Y10 E10 F1200 ; prime the nozzle
G92 E0
G21 ; set units to millimeters
G90 ; use absolute coordinates
M83 ; use relative distances for extrusion
; Filament gcode
M107
;LAYER_CHANGE
;Z:0.2
;HEIGHT:0.2
G1 E-5 F3600
G1 Z.2 F9000
G1 X73.163 Y72.191
G1 Z.2
G1 E5 F2400
M204 S500
;TYPE:Skirt/Brim
;WIDTH:0.42
G1 F1200
G1 X75.278 Y71.719 E.06795
G1 X79.788 Y72.255 E.1424
G1 X84.306 Y73.018 E.14366
G1 X88.764 Y73.999 E.14312
G1 X93.126 Y75.185 E.14173
G1 X97.749 Y76.696 E.1525
G1 X101.938 Y78.299 E.14063
G1 X106.142 Y80.149 E.14401
G1 X110.25 Y82.204 E.14402
G1 X114.297 Y84.486 E.14567
G1 X118.188 Y86.942 E.14427
G1 X121.77 Y89.456 E.13721
G1 X125.681 Y92.497 E.15533
G1 X129.097 Y95.444 E.14146
G1 X132.486 Y98.676 E.14683
G1 X135.605 Y101.956 E.14192
G1 X138.61 Y105.445 E.14438
G1 X141.439 Y109.079 E.1444
G1 X144.085 Y112.848 E.14439
G1 X146.542 Y116.743 E.14439
G1 X148.773 Y120.7 E.14243
G1 X150.836 Y124.815 E.14433
G1 X152.692 Y129.027 E.14432
G1 X154.338 Y133.326 E.14433
G1 X155.77 Y137.701 E.14434
G1 X156.984 Y142.141 E.14432
G1 X158.006 Y146.781 E.14897
G1 X158.748 Y151.174 E.13969
G1 X159.293 Y155.745 E.14434
G1 X159.081 Y157.315 E.04967
G1 X158.14 Y158.59 E.04969
G1 X156.126 Y159.307 E.06703
G1 X106.871 Y159.307 E1.54436
G1 X105.336 Y158.913 E.04969
G1 X104.36 Y158.083 E.04017
G1 X72.363 Y117.204 E1.62768
G1 X71.685 Y115.239 E.06518
G1 X71.685 Y74.882 E1.26537
G1 X72.079 Y73.347 E.04969
G1 X73.122 Y72.235 E.0478
G1 E-3.5 F3600
;WIPE_START
G1 F7200
G1 X73.163 Y72.191 E-.02857
G1 X75.278 Y71.719 E-1.02934
G1 X76.202 Y71.829 E-.44209
;WIPE_END
; printing object BBSimon.stl id:0 copy 0
G1 X75.938 Y76.079 F9000
G1 E5 F2400
;TYPE:Perimeter
;WIDTH:0.419999
G1 F1200
G1 X79.139 Y76.458 E.10107
G1 X83.473 Y77.189 E.13781
G1 X87.765 Y78.133 E.13779
G1 X92.005 Y79.288 E.13779
G1 X96.183 Y80.652 E.1378
G1 X100.289 Y82.219 E.1378
G1 X104.342 Y84.002 E.13883
G1 X108.272 Y85.969 E.13779
G1 X112.1 Y88.127 E.13778
G1 X115.819 Y90.474 E.13789
G1 X119.377 Y92.973 E.13633
G1 X122.894 Y95.71 E.13973
G1 X126.221 Y98.577 E.1377
G1 X129.405 Y101.608 E.13783
G1 X132.436 Y104.793 E.13786
G1 X135.306 Y108.124 E.13786
G1 X138.008 Y111.592 E.13784
G1 X140.515 Y115.161 E.13675
G1 X142.881 Y118.909 E.13897
G1 X145.041 Y122.738 E.13784
G1 X147.009 Y126.67 E.13786
G1 X148.779 Y130.694 E.13784
G1 X150.337 Y134.768 E.13676
G1 X151.714 Y138.98 E.13894
G1 X152.871 Y143.222 E.13786
G1 X153.817 Y147.516 E.13786
G1 X154.557 Y151.92 E.14002
G1 X154.929 Y155.054 E.09895
G1 X107.954 Y155.054 E1.47287
G1 X107.969 Y154.141 E.02863
G1 X107.906 Y152.142 E.06271
G1 X107.746 Y150.149 E.06269
G1 X107.488 Y148.166 E.0627
G1 X107.144 Y146.243 E.06125
G1 X106.698 Y144.294 E.06269
G1 X106.157 Y142.368 E.06273
G1 X105.522 Y140.472 E.06269
G1 X104.781 Y138.572 E.06394
G1 X103.981 Y136.783 E.06145
G1 X103.078 Y134.999 E.06269
G1 X102.089 Y133.261 E.0627
G1 X100.991 Y131.536 E.06411
G1 X99.835 Y129.903 E.06273
G1 X98.602 Y128.33 E.06267
G1 X97.324 Y126.851 E.06129
G1 X95.945 Y125.403 E.0627
G1 X94.467 Y123.996 E.06398
G1 X92.984 Y122.717 E.0614
G1 X91.409 Y121.485 E.0627
G1 X89.776 Y120.331 E.0627
G1 X88.049 Y119.235 E.06413
G1 X86.311 Y118.247 E.06268
G1 X84.567 Y117.365 E.06128
G1 X82.699 Y116.532 E.06413
G1 X80.878 Y115.824 E.06126
G1 X78.982 Y115.189 E.06269
G1 X77.057 Y114.648 E.0627
G1 X75.938 Y114.391 E.036
G1 X75.938 Y76.139 E1.19936
G1 X75.938 Y76.139 F9000
G1 X75.561 Y75.655
G1 F1200
G1 X79.193 Y76.085 E.11467
G1 X83.545 Y76.819 E.13838
G1 X87.855 Y77.767 E.13837
G1 X92.113 Y78.927 E.13837
G1 X96.309 Y80.296 E.13839
G1 X100.432 Y81.871 E.13838
G1 X104.502 Y83.661 E.13941
G1 X108.449 Y85.636 E.13838
G1 X112.293 Y87.804 E.13837
G1 X116.028 Y90.16 E.13846
G1 X119.601 Y92.67 E.13691
G1 X123.133 Y95.418 E.14031
G1 X126.474 Y98.297 E.13828
G1 X129.672 Y101.342 E.13845
G1 X132.716 Y104.54 E.13843
G1 X135.598 Y107.885 E.13844
G1 X138.311 Y111.368 E.13843
G1 X140.829 Y114.952 E.13734
G1 X143.205 Y118.715 E.13954
G1 X145.374 Y122.561 E.13844
G1 X147.35 Y126.51 E.13845
G1 X149.128 Y130.551 E.13842
G1 X150.692 Y134.642 E.13732
G1 X152.076 Y138.872 E.13955
G1 X153.237 Y143.132 E.13844
G1 X154.187 Y147.444 E.13844
G1 X154.932 Y151.876 E.14091
G1 X155.353 Y155.431 E.11224
G1 X107.57 Y155.431 E1.4982
G1 X107.592 Y154.152 E.04011
G1 X107.53 Y152.172 E.06211
G1 X107.372 Y150.197 E.06212
G1 X107.117 Y148.232 E.06213
G1 X106.767 Y146.282 E.06212
G1 X106.33 Y144.378 E.06125
G1 X105.794 Y142.471 E.06211
G1 X105.165 Y140.592 E.06213
G1 X104.436 Y138.724 E.06287
G1 X103.637 Y136.937 E.06138
G1 X102.742 Y135.17 E.0621
G1 X101.761 Y133.448 E.06214
G1 X100.683 Y131.753 E.06298
G1 X99.538 Y130.136 E.06212
G1 X98.317 Y128.576 E.06211
G1 X97.039 Y127.098 E.06126
G1 X95.672 Y125.664 E.06212
G1 X94.219 Y124.281 E.0629
G1 X92.738 Y123.003 E.06133
G1 X91.177 Y121.782 E.06214
G1 X89.559 Y120.64 E.06209
G1 X87.863 Y119.563 E.06299
G1 X86.14 Y118.584 E.06213
G1 X84.397 Y117.702 E.06125
G1 X82.563 Y116.883 E.06298
G1 X80.742 Y116.175 E.06126
G1 X78.863 Y115.547 E.06212
G1 X76.955 Y115.011 E.06214
G1 X75.561 Y114.691 E.04484
G1 X75.561 Y75.715 E1.22206
G1 X75.561 Y75.715 F9000
G1 X75.184 Y75.231
;TYPE:External perimeter
G1 F1200
G1 X79.246 Y75.711 E.12825
G1 X83.617 Y76.448 E.13898
G1 X87.945 Y77.401 E.13895
G1 X92.222 Y78.566 E.13899
G1 X96.435 Y79.94 E.13894
G1 X100.575 Y81.522 E.13896
G1 X104.663 Y83.32 E.14003
G1 X108.626 Y85.303 E.13894
G1 X112.486 Y87.48 E.13895
G1 X116.237 Y89.846 E.13905
G1 X119.826 Y92.366 E.1375
G1 X123.372 Y95.127 E.14091
G1 X126.727 Y98.018 E.13886
G1 X129.939 Y101.075 E.13903
G1 X132.996 Y104.287 E.13903
G1 X135.89 Y107.646 E.13902
G1 X138.615 Y111.144 E.13903
G1 X141.143 Y114.743 E.1379
G1 X143.529 Y118.522 E.14013
G1 X145.707 Y122.384 E.13902
G1 X147.691 Y126.349 E.13901
G1 X149.477 Y130.407 E.13901
G1 X151.048 Y134.516 E.13793
G1 X152.437 Y138.764 E.14013
G1 X153.604 Y143.042 E.13903
G1 X154.557 Y147.372 E.13901
G1 X155.306 Y151.831 E.14177
G1 X155.777 Y155.808 E.12557
G1 X107.186 Y155.808 E1.52353
G1 X107.215 Y154.164 E.05155
G1 X107.154 Y152.202 E.06155
G1 X106.999 Y150.254 E.06127
G1 X106.746 Y148.299 E.06181
G1 X106.402 Y146.375 E.06128
G1 X105.963 Y144.462 E.06154
G1 X105.431 Y142.573 E.06153
G1 X104.807 Y140.712 E.06154
G1 X104.091 Y138.875 E.06182
G1 X103.293 Y137.091 E.06128
G1 X102.405 Y135.34 E.06156
G1 X101.434 Y133.635 E.06152
G1 X100.38 Y131.979 E.06155
G1 X99.681 Y130.99 E.03797
G1 X99.242 Y130.368 E.02387
G1 X98.031 Y128.823 E.06155
G1 X96.754 Y127.345 E.06124
G1 X95.4 Y125.924 E.06154
G1 X93.972 Y124.565 E.06181
G1 X92.492 Y123.288 E.06129
G1 X90.945 Y122.08 E.06154
G1 X89.341 Y120.948 E.06156
G1 X87.677 Y119.891 E.06181
G1 X85.972 Y118.921 E.0615
G1 X84.227 Y118.038 E.06132
G1 X82.426 Y117.235 E.06183
G1 X80.605 Y116.527 E.06126
G1 X78.743 Y115.905 E.06155
G1 X76.853 Y115.374 E.06155
G1 X75.184 Y114.992 E.05368
G1 X75.184 Y75.291 E1.24479
G1 E-3.5 F3600
;WIPE_START
G1 F7200
G1 X75.184 Y75.231 E-.0285
G1 X78.261 Y75.595 E-1.4715
;WIPE_END
G1 X132.894 Y105.509 F9000
G1 E5 F2400
;TYPE:Solid infill
;WIDTH:0.42215
G1 F1200
G1 X129.169 Y101.784 E.16611
G1 X126.026 Y98.792 E.13684
G1 X123.242 Y96.393 E.11589
G1 X134.615 Y107.767 E.5072
G1 X135.082 Y108.308 E.02254
G1 X136.708 Y110.395 E.08343
G1 X120.622 Y94.31 E.71733
G1 X119.204 Y93.206 E.05667
G1 X118.459 Y92.683 E.0287
G1 X138.326 Y112.55 E.88596
G1 X139.593 Y114.353 E.06949
G1 X116.658 Y91.418 E1.02278
G1 X115.658 Y90.716 E.03853
G1 X115.011 Y90.308 E.02412
G1 X140.698 Y115.995 E1.1455
G1 X141.617 Y117.45 E.05427
G1 X113.558 Y89.391 E1.25128
G1 X112.105 Y88.474 E.05418
G1 X142.536 Y118.905 E1.35706
G1 X143.253 Y120.158 E.04552
G1 X110.852 Y87.757 E1.44491
G1 X109.622 Y87.064 E.04452
G1 X143.946 Y121.388 E1.53066
G1 X144.64 Y122.618 E.04453
G1 X108.392 Y86.37 E1.61646
G1 X107.286 Y85.8 E.03923
G1 X145.21 Y123.724 E1.6912
G1 X145.747 Y124.797 E.03784
G1 X106.212 Y85.263 E1.76302
G1 X105.139 Y84.726 E.03784
G1 X146.284 Y125.871 E1.83484
G1 X146.805 Y126.928 E.03716
G1 X104.082 Y84.205 E1.90521
G1 X103.124 Y83.784 E.033
G1 X147.227 Y127.886 E1.96673
G1 X147.648 Y128.844 E.033
G1 X102.167 Y83.363 E2.0282
G1 X101.209 Y82.942 E.033
G1 X148.069 Y129.802 E2.0897
G1 X148.491 Y130.76 E.03301
G1 X100.252 Y82.52 E2.15122
G1 X99.377 Y82.182 E.02958
G1 X148.827 Y131.632 E2.2052
G1 X149.159 Y132.5 E.0293
G1 X98.51 Y81.851 E2.25867
G1 X97.642 Y81.519 E.0293
G1 X149.491 Y133.369 E2.3122
G1 X149.823 Y134.237 E.0293
G1 X96.774 Y81.188 E2.3657
G1 X95.921 Y80.872 E.02868
G1 X150.135 Y135.085 E2.41763
G1 X150.396 Y135.882 E.02645
G1 X95.125 Y80.612 E2.46476
G1 X94.329 Y80.352 E.02641
G1 X150.656 Y136.679 E2.51188
G1 X150.917 Y137.476 E.02645
G1 X93.533 Y80.092 E2.55901
G1 X92.737 Y79.833 E.0264
G1 X151.177 Y138.273 E2.60611
G1 X151.438 Y139.069 E.02642
G1 X91.941 Y79.573 E2.65322
G1 X91.203 Y79.371 E.02413
G1 X151.639 Y139.807 E2.69512
G1 X151.84 Y140.544 E.02409
G1 X90.465 Y79.17 E2.73697
G1 X89.728 Y78.969 E.02409
G1 X152.041 Y141.282 E2.77882
G1 X152.242 Y142.019 E.02409
G1 X88.991 Y78.768 E2.82065
G1 X88.254 Y78.567 E.02409
G1 X152.443 Y142.756 E2.86248
G1 X152.631 Y143.48 E.02359
G1 X87.529 Y78.379 E2.90317
G1 X86.841 Y78.227 E.02222
G1 X152.782 Y144.168 E2.94061
G1 X152.934 Y144.856 E.02222
G1 X86.154 Y78.076 E2.97802
G1 X85.466 Y77.925 E.02221
G1 X153.085 Y145.544 E3.01544
G1 X153.237 Y146.231 E.02219
G1 X84.779 Y77.774 E3.05283
G1 X84.091 Y77.622 E.02222
G1 X153.388 Y146.919 E3.09027
G1 X153.537 Y147.605 E.02214
G1 X83.404 Y77.472 E3.12755
G1 X82.76 Y77.364 E.02059
G1 X153.646 Y148.25 E3.16113
G1 X153.755 Y148.895 E.02063
G1 X82.115 Y77.255 E3.19475
G1 X81.471 Y77.147 E.02059
G1 X153.864 Y149.541 E3.22835
G1 X153.973 Y150.186 E.02063
G1 X80.826 Y77.039 E3.26196
G1 X80.182 Y76.931 E.02059
G1 X154.082 Y150.831 E3.29554
G1 X154.191 Y151.477 E.02066
G1 X79.537 Y76.822 E3.32918
G1 X78.9 Y76.722 E.02033
G1 X154.287 Y152.109 E3.36185
G1 X154.359 Y152.717 E.01931
G1 X78.292 Y76.65 E3.39217
G1 X77.684 Y76.578 E.01931
G1 X154.431 Y153.326 E3.42252
G1 X154.503 Y153.934 E.01931
G1 X77.076 Y76.506 E3.45284
G1 X76.467 Y76.434 E.01934
G1 X154.576 Y154.542 E3.48321
G1 X154.602 Y154.764 E.00705
G1 X154.26 Y154.764 E.01078
G1 X76.228 Y76.732 E3.4798
G1 X76.228 Y77.268 E.0169
G1 X153.724 Y154.764 E3.4559
G1 X153.188 Y154.764 E.0169
G1 X76.228 Y77.804 E3.432
G1 X76.228 Y78.34 E.0169
G1 X152.651 Y154.764 E3.40807
G1 X152.115 Y154.764 E.0169
G1 X76.228 Y78.877 E3.38415
G1 X76.228 Y79.413 E.0169
G1 X151.579 Y154.764 E3.36024
G1 X151.042 Y154.764 E.01693
G1 X76.228 Y79.949 E3.33632
G1 X76.228 Y80.486 E.01693
G1 X150.506 Y154.764 E3.31239
G1 X149.97 Y154.764 E.0169
G1 X76.228 Y81.022 E3.28849
G1 X76.228 Y81.558 E.0169
G1 X149.434 Y154.764 E3.26459
G1 X148.897 Y154.764 E.01693
G1 X76.228 Y82.095 E3.24064
G1 X76.228 Y82.631 E.0169
G1 X148.361 Y154.764 E3.21674
G1 X147.825 Y154.764 E.0169
G1 X76.228 Y83.167 E3.19284
G1 X76.228 Y83.704 E.01693
G1 X147.288 Y154.764 E3.16889
G1 X146.752 Y154.764 E.0169
G1 X76.228 Y84.24 E3.14499
G1 X76.228 Y84.776 E.0169
G1 X146.216 Y154.764 E3.12108
G1 X145.679 Y154.764 E.01693
G1 X76.228 Y85.313 E3.09714
G1 X76.228 Y85.849 E.0169
G1 X145.143 Y154.764 E3.07323
G1 X144.607 Y154.764 E.0169
G1 X76.228 Y86.385 E3.04933
G1 X76.228 Y86.921 E.0169
G1 X144.07 Y154.764 E3.02541
G1 X143.534 Y154.764 E.0169
G1 X76.228 Y87.458 E3.00148
G1 X76.228 Y87.994 E.0169
G1 X142.998 Y154.764 E2.97758
G1 X142.461 Y154.764 E.01693
G1 X76.228 Y88.53 E2.95365
G1 X76.228 Y89.067 E.01693
G1 X141.925 Y154.764 E2.92973
G1 X141.389 Y154.764 E.0169
G1 X76.228 Y89.603 E2.90582
G1 X76.228 Y90.139 E.0169
G1 X140.853 Y154.764 E2.88192
G1 X140.316 Y154.764 E.01693
G1 X76.228 Y90.676 E2.85798
G1 X76.228 Y91.212 E.0169
G1 X139.78 Y154.764 E2.83407
G1 X139.244 Y154.764 E.0169
G1 X76.228 Y91.748 E2.81017
G1 X76.228 Y92.285 E.01693
G1 X138.707 Y154.764 E2.78622
G1 X138.171 Y154.764 E.0169
G1 X76.228 Y92.821 E2.76232
G1 X76.228 Y93.357 E.0169
G1 X137.635 Y154.764 E2.73842
G1 X137.098 Y154.764 E.01693
G1 X76.228 Y93.894 E2.71447
G1 X76.228 Y94.43 E.0169
G1 X136.562 Y154.764 E2.69057
G1 X136.026 Y154.764 E.0169
G1 X76.228 Y94.966 E2.66666
G1 X76.228 Y95.502 E.0169
G1 X135.489 Y154.764 E2.64274
G1 X134.953 Y154.764 E.0169
G1 X76.228 Y96.039 E2.61881
G1 X76.228 Y96.575 E.0169
G1 X134.417 Y154.764 E2.59491
G1 X133.88 Y154.764 E.01693
G1 X76.228 Y97.111 E2.57099
G1 X76.228 Y97.648 E.01693
G1 X133.344 Y154.764 E2.54706
G1 X132.808 Y154.764 E.0169
G1 X76.228 Y98.184 E2.52316
G1 X76.228 Y98.72 E.0169
G1 X132.272 Y154.764 E2.49926
G1 X131.735 Y154.764 E.01693
G1 X76.228 Y99.257 E2.47531
G1 X76.228 Y99.793 E.0169
G1 X131.199 Y154.764 E2.45141
G1 X130.663 Y154.764 E.0169
G1 X76.228 Y100.329 E2.4275
G1 X76.228 Y100.866 E.01693
G1 X130.126 Y154.764 E2.40356
G1 X129.59 Y154.764 E.0169
G1 X76.228 Y101.402 E2.37965
G1 X76.228 Y101.938 E.0169
G1 X129.054 Y154.764 E2.35575
G1 X128.517 Y154.764 E.01693
G1 X76.228 Y102.475 E2.3318
G1 X76.228 Y103.011 E.0169
G1 X127.981 Y154.764 E2.3079
G1 X127.445 Y154.764 E.0169
G1 X76.228 Y103.547 E2.284
G1 X76.228 Y104.083 E.0169
G1 X126.908 Y154.764 E2.26007
G1 X126.372 Y154.764 E.0169
G1 X76.228 Y104.62 E2.23615
G1 X76.228 Y105.156 E.0169
G1 X125.836 Y154.764 E2.21225
G1 X125.299 Y154.764 E.01693
G1 X99.353 Y128.817 E1.15707
G1 X98.858 Y128.184 E.02534
G1 X97.505 Y126.619 E.06523
G1 X96.138 Y125.185 E.06247
G1 X94.655 Y123.775 E.06453
G1 X93.172 Y122.496 E.06175
G1 X92.527 Y121.991 E.02583
G1 X76.228 Y105.692 E.72685
G1 X76.228 Y106.229 E.01693
G1 X90.456 Y120.456 E.63447
G1 X89.941 Y120.093 E.01987
G1 X88.883 Y119.42 E.03954
G1 X76.228 Y106.765 E.56434
G1 X76.228 Y107.301 E.0169
G1 X87.54 Y118.613 E.50445
G1 X86.315 Y117.924 E.04432
G1 X76.228 Y107.838 E.4498
G1 X76.228 Y108.374 E.0169
G1 X85.231 Y117.377 E.40148
G1 X84.646 Y117.082 E.02066
G1 X84.201 Y116.883 E.01537
G1 X76.228 Y108.91 E.35555
G1 X76.228 Y109.447 E.01693
G1 X83.234 Y116.453 E.31243
G1 X82.317 Y116.072 E.03131
G1 X76.228 Y109.983 E.27154
G1 X76.228 Y110.519 E.0169
G1 X81.44 Y115.73 E.2324
G1 X80.596 Y115.423 E.02832
G1 X76.228 Y111.056 E.19477
G1 X76.228 Y111.592 E.0169
G1 X79.79 Y115.153 E.15882
G1 X78.99 Y114.89 E.02655
G1 X76.228 Y112.128 E.12317
G1 X76.228 Y112.664 E.0169
G1 X78.244 Y114.68 E.0899
G1 X77.498 Y114.47 E.02444
G1 X76.228 Y113.201 E.05661
G1 X76.228 Y113.737 E.0169
G1 X77.003 Y114.512 E.03456
G1 E-3.5 F3600
;WIPE_START
G1 F7200
G1 X76.228 Y113.737 E-.52061
G1 X76.228 Y113.201 E-.2546
G1 X77.307 Y114.28 E-.72479
;WIPE_END
G1 X100.18 Y130.18 F9000
G1 E5 F2400
G1 F1200
G1 X124.763 Y154.764 E1.09629
G1 X124.227 Y154.764 E.0169
G1 X101.924 Y132.46 E.99461
G1 X102.34 Y133.115 E.02447
G1 X102.734 Y133.807 E.02511
G1 X123.691 Y154.764 E.93457
G1 X123.154 Y154.764 E.01693
G1 X103.415 Y135.024 E.88027
G1 X103.966 Y136.112 E.03846
G1 X122.618 Y154.764 E.83178
G1 X122.082 Y154.764 E.0169
G1 X104.46 Y137.142 E.78585
