; generated by PrusaSlicer 2.8.0 on 2024-10-19 at 12:22:22 UTC

; 

; external perimeters extrusion width = 0.42mm
; perimeters extrusion width = 0.44mm
; infill extrusion width = 0.44mm
; solid infill extrusion width = 0.44mm
; top infill extrusion width = 0.40mm
; support material extrusion width = 0.36mm
; first layer extrusion width = 0.42mm

M201 X500 Y500 Z100 E5000 ; sets maximum accelerations, mm/sec^2
M203 X500 Y500 Z10 E60 ; sets maximum feedrates, mm / sec
M204 S500 T1000 ; sets acceleration (S) and retract acceleration (R), mm/sec^2
M205 X8.00 Y8.00 Z0.40 E5.00 ; sets the jerk limits, mm/sec
M205 S0 T0 ; sets the minimum extruding and travel feed rate, mm/sec

; printing object YBSimon.stl id:0 copy 0
; stop printing object YBSimon.stl id:0 copy 0

;TYPE:Custom
G90 ; use absolute coordinates
M83 ; extruder relative mode
M104 S150 ; set temporary nozzle temp to prevent oozing during homing
M140 S60 ; set final bed temp
G4 S30 ; allow partial nozzle warmup
G28 ; home all axis
G1 Z50 F240
G1 X2.0 Y10 F3000
M104 S210 ; set final nozzle temp
M190 S60 ; wait for bed temp to stabilize
M109 S210 ; wait for nozzle temp to stabilize
G1 Z0.28 F240
G92 E0
G1 X2.0 Y140 E10 F1500 ; prime the nozzle
G1 X2.3 Y140 F5000
G92 E0
G1 X2.3 Y10 E10 F1200 ; prime the nozzle
G92 E0
G21 ; set units to millimeters
G90 ; use absolute coordinates
M83 ; use relative distances for extrusion
; Filament gcode
M107
;LAYER_CHANGE
;Z:0.2
;HEIGHT:0.2
G1 E-5 F3600
G1 Z.2 F9000
G1 X73.666 Y92.616
G1 Z.2
G1 E5 F2400
M204 S500
;TYPE:Skirt/Brim
;WIDTH:0.42
G1 F1200
G1 X99.11 Y72.378 E1.01936
G1 X101.095 Y71.684 E.06593
G1 X156.127 Y71.684 E1.72549
G1 X157.662 Y72.078 E.04969
G1 X158.818 Y73.162 E.04969
G1 X159.297 Y75.214 E.06607
G1 X158.815 Y79.639 E.13956
G1 X158.094 Y84.159 E.14351
G1 X157.213 Y88.394 E.13563
G1 X156.13 Y92.584 E.13569
G1 X154.773 Y96.956 E.14353
G1 X153.246 Y101.139 E.13962
G1 X151.518 Y105.243 E.13962
G1 X149.594 Y109.26 E.13965
G1 X147.49 Y113.159 E.13891
G1 X145.186 Y116.976 E.13979
G1 X142.7 Y120.677 E.13979
G1 X140.038 Y124.253 E.13978
G1 X137.173 Y127.735 E.14138
G1 X134.08 Y131.134 E.14409
G1 X131.027 Y134.186 E.13535
G1 X127.719 Y137.187 E.14004
G1 X124.267 Y140.027 E.14016
G1 X120.73 Y142.662 E.13829
G1 X116.954 Y145.199 E.14263
G1 X113.147 Y147.497 E.13943
G1 X109.217 Y149.616 E.13999
G1 X105.189 Y151.542 E.13999
G1 X101.072 Y153.272 E.14002
G1 X96.753 Y154.838 E.14405
G1 X92.611 Y156.123 E.13598
G1 X88.428 Y157.204 E.13546
G1 X84.06 Y158.115 E.1399
G1 X79.652 Y158.813 E.13993
G1 X75.216 Y159.297 E.13991
G1 X73.648 Y159.071 E.04967
G1 X72.382 Y158.118 E.04968
G1 X71.684 Y156.127 E.06615
G1 X71.684 Y95.729 E1.89374
G1 X72.078 Y94.195 E.04966
G1 X72.888 Y93.234 E.03941
G1 X73.619 Y92.653 E.02928
G1 E-3.5 F3600
;WIPE_START
G1 F7200
G1 X73.666 Y92.616 E-.02841
G1 X76.091 Y90.687 E-1.47159
;WIPE_END
; printing object YBSimon.stl id:0 copy 0
G1 X75.937 Y96.544 F9000
G1 E5 F2400
;TYPE:Perimeter
;WIDTH:0.419999
G1 F1200
G1 X77.051 Y96.242 E.03619
G1 X78.884 Y95.651 E.06039
G1 X80.73 Y94.958 E.06182
G1 X82.54 Y94.177 E.06181
G1 X84.31 Y93.31 E.0618
G1 X86.037 Y92.359 E.06182
G1 X87.717 Y91.327 E.06182
G1 X89.345 Y90.215 E.06182
G1 X90.953 Y88.997 E.06325
G1 X92.465 Y87.733 E.06179
G1 X93.915 Y86.397 E.06182
G1 X95.295 Y84.997 E.06164
G1 X96.614 Y83.524 E.06199
G1 X97.857 Y81.994 E.06181
G1 X99.025 Y80.406 E.06181
G1 X100.116 Y78.764 E.06181
G1 X101.104 Y77.11 E.06041
G1 X101.732 Y75.937 E.04172
G1 X154.942 Y75.937 E1.66836
G1 X154.616 Y78.948 E.09496
G1 X153.947 Y83.217 E.13548
G1 X153.082 Y87.383 E.13341
G1 X152.017 Y91.502 E.1334
G1 X150.754 Y95.565 E.13341
G1 X149.296 Y99.561 E.13337
G1 X147.647 Y103.483 E.1334
G1 X145.809 Y107.321 E.13343
G1 X143.789 Y111.065 E.13339
G1 X141.589 Y114.706 E.13338
G1 X139.196 Y118.265 E.13447
G1 X136.675 Y121.65 E.13233
G1 X133.972 Y124.936 E.13341
G1 X131.113 Y128.086 E.13338
G1 X128.105 Y131.095 E.1334
G1 X124.916 Y133.988 E.135
G1 X121.641 Y136.682 E.13296
G1 X118.24 Y139.215 E.13296
G1 X114.72 Y141.58 E.13296
G1 X111.074 Y143.783 E.13357
G1 X107.33 Y145.805 E.13342
G1 X103.491 Y147.643 E.13345
G1 X99.568 Y149.294 E.13345
G1 X95.571 Y150.752 E.1334
G1 X91.472 Y152.025 E.13458
G1 X87.386 Y153.081 E.13232
G1 X83.219 Y153.946 E.13344
G1 X79.015 Y154.608 E.13344
G1 X75.937 Y154.941 E.09707
G1 X75.937 Y96.604 E1.82911
G1 X75.937 Y96.604 F9000
G1 X75.56 Y96.255
G1 F1200
G1 X76.935 Y95.883 E.04466
G1 X78.768 Y95.293 E.06038
G1 X80.597 Y94.605 E.06127
G1 X82.39 Y93.831 E.06123
G1 X84.144 Y92.972 E.06124
G1 X85.855 Y92.029 E.06126
G1 X87.519 Y91.006 E.06124
G1 X89.132 Y89.903 E.06127
G1 X90.706 Y88.712 E.06189
G1 X92.21 Y87.455 E.06146
G1 X93.646 Y86.132 E.06122
G1 X95.016 Y84.744 E.06115
G1 X96.322 Y83.286 E.06137
G1 X97.554 Y81.77 E.06125
G1 X98.711 Y80.197 E.06122
G1 X99.792 Y78.57 E.06125
G1 X100.781 Y76.917 E.0604
G1 X101.506 Y75.56 E.04824
G1 X155.362 Y75.56 E1.68861
G1 X154.99 Y78.989 E.10814
G1 X154.318 Y83.284 E.1363
G1 X153.449 Y87.468 E.13399
G1 X152.38 Y91.605 E.13397
G1 X151.112 Y95.685 E.13396
G1 X149.647 Y99.699 E.13398
G1 X147.991 Y103.638 E.13397
G1 X146.145 Y107.492 E.13399
G1 X144.116 Y111.252 E.13396
G1 X141.907 Y114.909 E.13396
G1 X139.504 Y118.483 E.13503
G1 X136.972 Y121.883 E.13292
G1 X134.257 Y125.182 E.13396
G1 X131.386 Y128.347 E.13398
G1 X128.365 Y131.368 E.13396
G1 X125.163 Y134.273 E.13556
G1 X121.874 Y136.979 E.13354
G1 X118.458 Y139.522 E.13353
G1 X114.923 Y141.898 E.13355
G1 X111.261 Y144.111 E.13416
G1 X107.501 Y146.141 E.13398
G1 X103.646 Y147.987 E.13401
G1 X99.706 Y149.645 E.13403
G1 X95.691 Y151.11 E.13401
G1 X91.575 Y152.388 E.13513
G1 X87.472 Y153.449 E.13288
G1 X83.287 Y154.317 E.13401
G1 X79.065 Y154.982 E.13401
G1 X75.56 Y155.362 E.11054
G1 X75.56 Y96.315 E1.85137
G1 X75.56 Y96.315 F9000
G1 X75.183 Y95.967
;TYPE:External perimeter
G1 F1200
G1 X76.819 Y95.525 E.05313
G1 X78.653 Y94.934 E.06042
G1 X80.464 Y94.252 E.06068
G1 X82.241 Y93.485 E.06068
G1 X83.978 Y92.633 E.06066
G1 X85.673 Y91.699 E.06068
G1 X87.321 Y90.685 E.06067
G1 X88.919 Y89.592 E.0607
G1 X90.468 Y88.42 E.0609
G1 X91.947 Y87.184 E.06043
G1 X93.378 Y85.867 E.06098
G1 X94.737 Y84.49 E.06066
G1 X96.029 Y83.048 E.06071
G1 X97.244 Y81.554 E.06038
G1 X98.397 Y79.988 E.06097
G1 X99.469 Y78.377 E.06067
G1 X100.457 Y76.723 E.06041
G1 X101.28 Y75.183 E.05475
G1 X155.782 Y75.183 E1.70887
G1 X155.365 Y79.03 E.12133
G1 X154.689 Y83.352 E.13716
G1 X153.817 Y87.554 E.13456
G1 X152.743 Y91.708 E.13453
G1 X151.469 Y95.806 E.13456
G1 X149.998 Y99.837 E.13454
G1 X148.335 Y103.792 E.13452
G1 X146.482 Y107.663 E.13456
G1 X144.444 Y111.439 E.13454
G1 X142.225 Y115.112 E.13455
G1 X139.812 Y118.701 E.1356
G1 X137.269 Y122.115 E.13348
G1 X134.542 Y125.429 E.13456
G1 X131.659 Y128.607 E.13454
G1 X128.625 Y131.641 E.13453
G1 X125.41 Y134.558 E.13611
G1 X122.106 Y137.276 E.13414
G1 X118.676 Y139.83 E.13408
G1 X115.126 Y142.216 E.13411
G1 X111.449 Y144.438 E.13471
G1 X107.672 Y146.477 E.13458
G1 X103.8 Y148.331 E.1346
G1 X99.844 Y149.996 E.13458
G1 X95.812 Y151.467 E.13457
G1 X91.679 Y152.75 E.13569
G1 X87.557 Y153.816 E.13349
G1 X83.355 Y154.688 E.13456
G1 X79.114 Y155.356 E.13461
G1 X75.183 Y155.782 E.12398
G1 X75.183 Y96.027 E1.87357
G1 E-3.5 F3600
;WIPE_START
G1 F7200
G1 X75.183 Y95.967 E-.0285
G1 X76.819 Y95.525 E-.80496
G1 X78.154 Y95.094 E-.66654
;WIPE_END
G1 X154.733 Y76.745 F9000
G1 E5 F2400
;TYPE:Solid infill
;WIDTH:0.42063
G1 F1200
G1 X154.215 Y76.227 E.02301
G1 X153.681 Y76.227 E.01677
G1 X154.527 Y77.073 E.03758
G1 X154.474 Y77.555 E.01523
G1 X153.147 Y76.227 E.05896
G1 X152.613 Y76.227 E.01677
G1 X154.422 Y78.037 E.08037
G1 X154.37 Y78.519 E.01523
G1 X152.079 Y76.227 E.10178
G1 X151.545 Y76.227 E.01677
G1 X154.317 Y79 E.12314
G1 X154.244 Y79.461 E.01466
G1 X151.01 Y76.227 E.14364
G1 X150.476 Y76.227 E.01677
G1 X154.171 Y79.923 E.16414
G1 X154.099 Y80.384 E.01465
G1 X149.942 Y76.227 E.18464
G1 X149.408 Y76.227 E.01677
G1 X154.026 Y80.846 E.20513
G1 X153.953 Y81.307 E.01466
G1 X148.874 Y76.227 E.22561
G1 X148.34 Y76.227 E.01677
G1 X153.881 Y81.769 E.24613
G1 X153.808 Y82.23 E.01466
G1 X147.805 Y76.227 E.26663
G1 X147.271 Y76.227 E.01677
G1 X153.735 Y82.692 E.28713
G1 X153.663 Y83.153 E.01465
G1 X146.737 Y76.227 E.30762
G1 X146.203 Y76.227 E.01677
G1 X153.571 Y83.596 E.32728
G1 X153.479 Y84.038 E.01418
G1 X145.669 Y76.227 E.34691
G1 X145.135 Y76.227 E.01677
G1 X153.388 Y84.481 E.36659
G1 X153.296 Y84.923 E.01418
G1 X144.6 Y76.227 E.38624
G1 X144.066 Y76.227 E.01677
G1 X153.204 Y85.365 E.40587
G1 X153.112 Y85.808 E.01421
G1 X143.532 Y76.227 E.42553
G1 X142.998 Y76.227 E.01677
G1 X153.021 Y86.25 E.44518
G1 X152.929 Y86.692 E.01418
G1 X142.464 Y76.227 E.46481
G1 X141.93 Y76.227 E.01677
G1 X152.837 Y87.135 E.48447
G1 X152.735 Y87.567 E.01394
G1 X141.395 Y76.227 E.50368
G1 X140.861 Y76.227 E.01677
G1 X152.625 Y87.991 E.52251
G1 X152.515 Y88.415 E.01376
G1 X140.327 Y76.227 E.54134
G1 X139.793 Y76.227 E.01677
G1 X152.405 Y88.84 E.56019
G1 X152.296 Y89.264 E.01375
G1 X139.259 Y76.227 E.57905
G1 X138.725 Y76.227 E.01677
G1 X152.186 Y89.689 E.5979
G1 X152.076 Y90.113 E.01376
G1 X138.19 Y76.227 E.61676
G1 X137.656 Y76.227 E.01677
G1 X151.966 Y90.538 E.63561
G1 X151.857 Y90.962 E.01375
G1 X137.122 Y76.227 E.65447
G1 X136.588 Y76.227 E.01677
G1 X151.747 Y91.387 E.67332
G1 X151.622 Y91.795 E.0134
G1 X136.054 Y76.227 E.69147
G1 X135.52 Y76.227 E.01677
G1 X151.495 Y92.203 E.70956
G1 X151.368 Y92.61 E.01339
G1 X134.985 Y76.227 E.72766
G1 X134.451 Y76.227 E.01677
G1 X151.242 Y93.018 E.74579
G1 X151.115 Y93.425 E.01339
G1 X133.917 Y76.227 E.76386
G1 X133.383 Y76.227 E.01677
G1 X150.988 Y93.833 E.78196
G1 X150.862 Y94.24 E.01338
G1 X132.849 Y76.227 E.80006
G1 X132.315 Y76.227 E.01677
G1 X150.735 Y94.648 E.81816
G1 X150.608 Y95.055 E.01339
G1 X131.78 Y76.227 E.83626
G1 X131.246 Y76.227 E.01677
G1 X150.482 Y95.463 E.85438
G1 X150.339 Y95.855 E.01311
G1 X130.712 Y76.227 E.87177
G1 X130.178 Y76.227 E.01677
G1 X150.197 Y96.246 E.88916
G1 X150.054 Y96.637 E.01308
G1 X129.644 Y76.227 E.90653
G1 X129.11 Y76.227 E.01677
G1 X149.911 Y97.029 E.92392
G1 X149.768 Y97.42 E.01308
G1 X128.576 Y76.227 E.94128
G1 X128.041 Y76.227 E.0168
G1 X149.625 Y97.812 E.95869
G1 X149.483 Y98.203 E.01306
G1 X127.507 Y76.227 E.97608
G1 X126.973 Y76.227 E.01677
G1 X149.34 Y98.594 E.99345
G1 X149.197 Y98.986 E.01311
G1 X126.439 Y76.227 E1.01084
G1 X125.905 Y76.227 E.01677
G1 X149.054 Y99.377 E1.0282
G1 X148.899 Y99.756 E.01286
G1 X125.371 Y76.227 E1.04504
G1 X124.836 Y76.227 E.0168
G1 X148.741 Y100.132 E1.06176
G1 X148.583 Y100.508 E.01281
G1 X124.302 Y76.227 E1.07846
G1 X123.768 Y76.227 E.01677
G1 X148.425 Y100.884 E1.09516
G1 X148.267 Y101.26 E.01281
G1 X123.234 Y76.227 E1.11186
G1 X122.7 Y76.227 E.01677
G1 X148.109 Y101.636 E1.12856
G1 X147.95 Y102.012 E.01282
G1 X122.166 Y76.227 E1.14524
G1 X121.631 Y76.227 E.0168
G1 X147.792 Y102.388 E1.16196
G1 X147.634 Y102.764 E.01281
G1 X121.097 Y76.227 E1.17866
G1 X120.563 Y76.227 E.01677
G1 X147.476 Y103.14 E1.19536
G1 X147.312 Y103.51 E.01271
G1 X120.029 Y76.227 E1.2118
G1 X119.495 Y76.227 E.01677
G1 X147.139 Y103.872 E1.22785
G1 X146.966 Y104.233 E.01257
G1 X118.961 Y76.227 E1.24389
G1 X118.426 Y76.227 E.0168
G1 X146.793 Y104.594 E1.25994
G1 X146.62 Y104.955 E.01257
G1 X117.892 Y76.227 E1.27598
G1 X117.358 Y76.227 E.01677
G1 X146.447 Y105.316 E1.29201
G1 X146.274 Y105.678 E.0126
G1 X116.824 Y76.227 E1.30807
G1 X116.29 Y76.227 E.01677
G1 X146.101 Y106.039 E1.3241
G1 X145.928 Y106.4 E.01257
G1 X115.756 Y76.227 E1.34014
G1 X115.221 Y76.227 E.0168
G1 X145.755 Y106.761 E1.35619
G1 X145.582 Y107.122 E.01257
G1 X114.687 Y76.227 E1.37223
G1 X114.153 Y76.227 E.01677
G1 X145.398 Y107.472 E1.38777
G1 X145.21 Y107.819 E.01239
G1 X113.619 Y76.227 E1.40316
G1 X113.085 Y76.227 E.01677
G1 X145.023 Y108.166 E1.41857
G1 X144.836 Y108.513 E.01238
G1 X112.551 Y76.227 E1.43399
G1 X112.016 Y76.227 E.0168
G1 X144.649 Y108.86 E1.44942
G1 X144.461 Y109.207 E.01239
G1 X111.482 Y76.227 E1.46481
G1 X110.948 Y76.227 E.01677
G1 X144.274 Y109.554 E1.48022
G1 X144.087 Y109.9 E.01235
G1 X110.414 Y76.227 E1.49561
G1 X109.88 Y76.227 E.01677
G1 X143.9 Y110.247 E1.51103
G1 X143.712 Y110.594 E.01239
G1 X109.346 Y76.227 E1.52642
G1 X108.811 Y76.227 E.0168
G1 X143.524 Y110.94 E1.54181
G1 X143.323 Y111.273 E.01222
G1 X108.277 Y76.227 E1.5566
G1 X107.743 Y76.227 E.01677
G1 X143.122 Y111.606 E1.57139
G1 X142.921 Y111.939 E.01222
G1 X107.209 Y76.227 E1.58618
G1 X106.675 Y76.227 E.01677
G1 X142.72 Y112.272 E1.60097
G1 X142.519 Y112.606 E.01224
G1 X106.141 Y76.227 E1.61578
G1 X105.607 Y76.227 E.01677
G1 X142.318 Y112.939 E1.63057
G1 X142.116 Y113.272 E.01223
G1 X105.072 Y76.227 E1.64536
G1 X104.538 Y76.227 E.01677
G1 X141.915 Y113.605 E1.66015
G1 X141.714 Y113.938 E.01222
G1 X104.004 Y76.227 E1.67494
G1 X103.47 Y76.227 E.01677
G1 X141.513 Y114.271 E1.68973
G1 X141.31 Y114.601 E.01217
G1 X102.936 Y76.227 E1.70441
G1 X102.402 Y76.227 E.01677
G1 X141.095 Y114.921 E1.7186
G1 X140.88 Y115.24 E.01208
G1 X101.893 Y76.253 E1.73164
G1 X101.706 Y76.601 E.01241
G1 X140.665 Y115.56 E1.7304
G1 X140.451 Y115.879 E.01206
G1 X101.52 Y76.949 E1.72913
G1 X101.332 Y77.295 E.01237
G1 X140.236 Y116.198 E1.72793
G1 X140.021 Y116.518 E.01211
G1 X101.132 Y77.629 E1.72729
G1 X100.933 Y77.963 E.01221
G1 X139.806 Y116.837 E1.7266
G1 X139.592 Y117.157 E.01209
G1 X100.733 Y78.298 E1.72595
G1 X100.533 Y78.632 E.01223
G1 X139.377 Y117.476 E1.72529
G1 X139.162 Y117.795 E.01208
G1 X100.331 Y78.964 E1.72471
G1 X100.118 Y79.285 E.0121
G1 X138.947 Y118.114 E1.72462
G1 X138.719 Y118.42 E.01198
G1 X99.905 Y79.606 E1.72395
G1 X99.692 Y79.927 E.0121
G1 X138.491 Y118.726 E1.72329
G1 X138.262 Y119.033 E.01203
G1 X99.478 Y80.248 E1.72264
G1 X99.265 Y80.569 E.0121
G1 X138.034 Y119.339 E1.72198
G1 X137.806 Y119.645 E.01198
G1 X99.039 Y80.877 E1.72189
G1 X98.813 Y81.185 E.012
G1 X137.578 Y119.951 E1.7218
G1 X137.35 Y120.257 E.01198
G1 X98.586 Y81.493 E1.72173
G1 X98.36 Y81.801 E.012
G1 X137.122 Y120.563 E1.72165
G1 X136.894 Y120.869 E.01198
G1 X98.133 Y82.108 E1.7216
G1 X97.897 Y82.406 E.01194
G1 X136.666 Y121.175 E1.72196
G1 X136.438 Y121.481 E.01198
G1 X97.657 Y82.7 E1.72249
G1 X97.418 Y82.995 E.01192
G1 X136.197 Y121.774 E1.7224
G1 X135.956 Y122.067 E.01192
G1 X97.178 Y83.29 E1.72233
G1 X96.939 Y83.585 E.01192
G1 X135.714 Y122.36 E1.72222
G1 X135.473 Y122.653 E.01192
G1 X96.692 Y83.872 E1.72249
G1 X96.44 Y84.154 E.01188
G1 X135.232 Y122.946 E1.72298
G1 X134.991 Y123.239 E.01192
G1 X96.187 Y84.436 E1.72349
G1 X95.935 Y84.717 E.01185
G1 X134.75 Y123.532 E1.724
G1 X134.509 Y123.825 E.01192
G1 X95.683 Y84.999 E1.72449
G1 X95.427 Y85.278 E.01189
G1 X134.268 Y124.119 E1.72515
G1 X134.027 Y124.412 E.01192
G1 X95.162 Y85.546 E1.72624
G1 X94.896 Y85.815 E.01188
G1 X133.786 Y124.705 E1.72733
G1 X133.533 Y124.987 E.0119
G1 X94.631 Y86.084 E1.72789
G1 X94.365 Y86.353 E.01188
G1 X133.279 Y125.267 E1.7284
G1 X133.025 Y125.547 E.01187
G1 X94.1 Y86.621 E1.72891
G1 X93.822 Y86.878 E.01189
G1 X132.771 Y125.827 E1.72995
G1 X132.517 Y126.107 E.01187
G1 X93.544 Y87.134 E1.73102
G1 X93.266 Y87.39 E.01187
G1 X132.263 Y126.387 E1.73208
G1 X132.009 Y126.667 E.01187
G1 X92.988 Y87.646 E1.73315
G1 X92.709 Y87.902 E.01189
G1 X131.754 Y126.947 E1.73422
G1 X131.5 Y127.227 E.01187
G1 X92.422 Y88.148 E1.7357
G1 X92.131 Y88.391 E.01191
G1 X131.246 Y127.507 E1.73735
G1 X130.992 Y127.787 E.01187
G1 X91.84 Y88.635 E1.73897
G1 X91.549 Y88.878 E.01191
G1 X130.73 Y128.059 E1.74026
G1 X130.463 Y128.326 E.01186
G1 X91.258 Y89.121 E1.74132
G1 X90.959 Y89.357 E.01196
G1 X130.196 Y128.593 E1.74272
G1 X129.929 Y128.86 E.01186
G1 X90.656 Y89.587 E1.74434
G1 X90.352 Y89.817 E.01197
G1 X129.661 Y129.127 E1.74596
G1 X129.394 Y129.394 E.01186
G1 X90.048 Y90.047 E1.74761
G1 X89.744 Y90.278 E.01199
G1 X129.127 Y129.661 E1.74923
G1 X128.86 Y129.929 E.01188
G1 X89.436 Y90.504 E1.75107
G1 X89.118 Y90.721 E.01209
G1 X128.593 Y130.196 E1.75331
G1 X128.326 Y130.463 E.01186
G1 X88.801 Y90.938 E1.75553
G1 X88.484 Y91.155 E.01207
G1 X128.059 Y130.73 E1.75776
G1 X127.787 Y130.992 E.01186
G1 X88.167 Y91.372 E1.75975
