; generated by PrusaSlicer 2.8.0 on 2024-10-19 at 13:42:47 UTC

; 

; external perimeters extrusion width = 0.42mm
; perimeters extrusion width = 0.44mm
; infill extrusion width = 0.44mm
; solid infill extrusion width = 0.44mm
; top infill extrusion width = 0.40mm
; support material extrusion width = 0.36mm
; first layer extrusion width = 0.42mm

M201 X500 Y500 Z100 E5000 ; sets maximum accelerations, mm/sec^2
M203 X500 Y500 Z10 E60 ; sets maximum feedrates, mm / sec
M204 S500 T1000 ; sets acceleration (S) and retract acceleration (R), mm/sec^2
M205 X8.00 Y8.00 Z0.40 E5.00 ; sets the jerk limits, mm/sec
M205 S0 T0 ; sets the minimum extruding and travel feed rate, mm/sec

; printing object RBSimon.stl id:0 copy 0
; stop printing object RBSimon.stl id:0 copy 0

;TYPE:Custom
G90 ; use absolute coordinates
M83 ; extruder relative mode
M104 S150 ; set temporary nozzle temp to prevent oozing during homing
M140 S60 ; set final bed temp
G4 S30 ; allow partial nozzle warmup
G28 ; home all axis
G1 Z50 F240
G1 X2.0 Y10 F3000
M104 S210 ; set final nozzle temp
M190 S60 ; wait for bed temp to stabilize
M109 S210 ; wait for nozzle temp to stabilize
G1 Z0.28 F240
G92 E0
G1 X2.0 Y140 E10 F1500 ; prime the nozzle
G1 X2.3 Y140 F5000
G92 E0
G1 X2.3 Y10 E10 F1200 ; prime the nozzle
G92 E0
G21 ; set units to millimeters
G90 ; use absolute coordinates
M83 ; use relative distances for extrusion
; Filament gcode
M107
;LAYER_CHANGE
;Z:0.2
;HEIGHT:0.2
G1 E-5 F3600
G1 Z.2 F9000
G1 X72.906 Y72.367
G1 Z.2
G1 E5 F2400
M204 S500
;TYPE:Skirt/Brim
;WIDTH:0.42
G1 F1200
G1 X74.873 Y71.687 E.06526
G1 X129.205 Y71.687 E1.70354
G1 X131.157 Y72.355 E.06469
G1 X158.079 Y93.205 E1.06767
G1 X159.052 Y94.457 E.04972
G1 X159.315 Y95.726 E.04063
G1 X159.315 Y156.124 E1.89374
G1 X158.922 Y157.659 E.04968
G1 X157.838 Y158.815 E.04969
G1 X155.816 Y159.297 E.06517
G1 X151.377 Y158.856 E.13987
G1 X146.966 Y158.197 E.13984
G1 X142.59 Y157.323 E.13992
G1 X138.263 Y156.236 E.13989
G1 X133.993 Y154.939 E.13992
G1 X129.891 Y153.472 E.13659
G1 X125.518 Y151.656 E.14847
G1 X121.648 Y149.824 E.13425
G1 X117.705 Y147.718 E.14016
G1 X113.692 Y145.305 E.14682
G1 X110.131 Y142.923 E.13433
G1 X106.635 Y140.333 E.13642
G1 X103.016 Y137.366 E.14673
G1 X99.71 Y134.365 E.13999
G1 X96.549 Y131.2 E.14025
G1 X93.546 Y127.882 E.14032
G1 X90.801 Y124.538 E.13565
G1 X88.047 Y120.827 E.1449
G1 X85.563 Y117.105 E.1403
G1 X83.339 Y113.396 E.1356
G1 X81.158 Y109.319 E.14497
G1 X79.247 Y105.273 E.1403
G1 X77.592 Y101.28 E.13553
G1 X76.032 Y96.925 E.14504
G1 X74.736 Y92.642 E.1403
G1 X73.65 Y88.302 E.14027
G1 X72.78 Y83.913 E.14029
G1 X72.144 Y79.641 E.13542
G1 X71.7 Y75.19 E.14025
G1 X71.941 Y73.624 E.04968
G1 X72.869 Y72.414 E.04781
G1 E-3.5 F3600
;WIPE_START
G1 F7200
G1 X72.906 Y72.367 E-.02841
G1 X74.873 Y71.687 E-.98858
G1 X75.89 Y71.687 E-.48301
;WIPE_END
; printing object RBSimon.stl id:0 copy 0
G1 X76.048 Y75.94 F9000
G1 E5 F2400
;TYPE:Perimeter
;WIDTH:0.419999
G1 F1200
G1 X128.608 Y75.94 E1.64798
G1 X129.46 Y77.334 E.05123
G1 X130.716 Y79.182 E.07006
G1 X132.031 Y80.93 E.06858
G1 X133.459 Y82.649 E.07007
G1 X134.999 Y84.329 E.07146
G1 X136.588 Y85.9 E.07006
G1 X138.251 Y87.392 E.07005
G1 X139.984 Y88.801 E.07003
G1 X141.784 Y90.125 E.07006
G1 X143.645 Y91.36 E.07003
G1 X145.564 Y92.503 E.07003
G1 X147.537 Y93.552 E.07006
G1 X149.558 Y94.504 E.07005
G1 X151.623 Y95.357 E.07005
G1 X153.683 Y96.094 E.0686
G1 X155.063 Y96.515 E.04524
G1 X155.063 Y97.912 E.0438
G1 X155.063 Y154.95 E1.78838
G1 X151.963 Y154.643 E.09767
G1 X147.745 Y154.016 E.13371
G1 X143.564 Y153.183 E.13367
G1 X139.429 Y152.147 E.13366
G1 X135.317 Y150.897 E.13475
G1 X131.335 Y149.471 E.13262
G1 X127.396 Y147.839 E.13369
G1 X123.542 Y146.016 E.13368
G1 X119.782 Y144.006 E.13368
G1 X116.125 Y141.814 E.13368
G1 X112.583 Y139.448 E.13355
G1 X109.137 Y136.893 E.13451
G1 X105.878 Y134.218 E.1322
G1 X102.664 Y131.305 E.136
G1 X99.673 Y128.314 E.13263
G1 X96.809 Y125.155 E.13369
G1 X94.103 Y121.858 E.13373
G1 X91.562 Y118.433 E.13372
G1 X89.192 Y114.887 E.13373
G1 X86.999 Y111.23 E.1337
G1 X84.988 Y107.469 E.13372
G1 X83.163 Y103.614 E.13373
G1 X81.53 Y99.674 E.13373
G1 X80.092 Y95.659 E.13372
G1 X78.853 Y91.579 E.13369
G1 X77.816 Y87.442 E.13373
G1 X76.982 Y83.26 E.13371
G1 X76.355 Y79.041 E.13374
G1 X76.054 Y76 E.09581
G1 X76.054 Y76 F9000
G1 X75.632 Y75.563
G1 F1200
G1 X128.819 Y75.563 E1.66764
G1 X129.772 Y77.122 E.05729
G1 X131.017 Y78.955 E.06948
G1 X132.333 Y80.703 E.0686
G1 X133.749 Y82.408 E.06949
G1 X135.246 Y84.041 E.06946
G1 X136.82 Y85.6 E.06946
G1 X138.489 Y87.099 E.07034
G1 X140.208 Y88.498 E.06949
G1 X141.992 Y89.811 E.06945
G1 X143.838 Y91.036 E.06946
G1 X145.742 Y92.17 E.06948
G1 X147.698 Y93.211 E.06947
G1 X149.702 Y94.156 E.06947
G1 X151.75 Y95.002 E.06948
G1 X153.81 Y95.739 E.0686
G1 X155.44 Y96.236 E.05343
G1 X155.44 Y97.912 E.05255
G1 X155.44 Y155.366 E1.80143
G1 X151.916 Y155.017 E.11103
G1 X147.681 Y154.388 E.13424
G1 X143.481 Y153.551 E.13428
G1 X139.328 Y152.51 E.13424
G1 X135.198 Y151.255 E.13534
G1 X131.199 Y149.823 E.13318
G1 X127.243 Y148.184 E.13426
G1 X123.372 Y146.353 E.13427
G1 X119.596 Y144.334 E.13426
G1 X115.923 Y142.133 E.13426
G1 X112.366 Y139.757 E.13412
G1 X108.905 Y137.19 E.13511
G1 X105.631 Y134.503 E.1328
G1 X102.404 Y131.578 E.13656
G1 X99.4 Y128.574 E.1332
G1 X96.523 Y125.401 E.13429
G1 X93.806 Y122.09 E.13429
G1 X91.254 Y118.65 E.1343
G1 X88.873 Y115.089 E.13431
G1 X86.671 Y111.416 E.13427
G1 X84.651 Y107.639 E.1343
G1 X82.819 Y103.767 E.13431
G1 X81.178 Y99.81 E.13431
G1 X79.734 Y95.778 E.13428
G1 X78.49 Y91.679 E.13431
G1 X77.448 Y87.525 E.13428
G1 X76.61 Y83.324 E.13431
G1 X75.98 Y79.088 E.13428
G1 X75.638 Y75.623 E.10917
G1 X75.638 Y75.623 F9000
G1 X75.215 Y75.186
;TYPE:External perimeter
G1 F1200
G1 X129.031 Y75.186 E1.68736
G1 X130.084 Y76.91 E.06334
G1 X131.318 Y78.728 E.06889
G1 X132.634 Y80.477 E.06863
G1 X134.039 Y82.167 E.06891
G1 X135.527 Y83.791 E.06906
G1 X137.085 Y85.332 E.06871
G1 X138.724 Y86.805 E.06909
G1 X140.424 Y88.188 E.06871
G1 X142.201 Y89.497 E.0692
G1 X144.031 Y90.712 E.06887
G1 X145.919 Y91.837 E.06891
G1 X147.85 Y92.866 E.0686
G1 X149.846 Y93.807 E.06919
G1 X151.877 Y94.647 E.06891
G1 X153.937 Y95.384 E.0686
G1 X155.817 Y95.956 E.06161
G1 X155.817 Y97.912 E.06133
G1 X155.817 Y155.782 E1.81447
G1 X151.87 Y155.392 E.12436
G1 X147.616 Y154.76 E.13484
G1 X143.399 Y153.919 E.13482
G1 X139.227 Y152.874 E.13485
G1 X135.08 Y151.613 E.1359
G1 X131.063 Y150.175 E.13378
G1 X127.09 Y148.529 E.13484
G1 X123.202 Y146.69 E.13485
G1 X119.41 Y144.663 E.13482
G1 X115.721 Y142.452 E.13485
G1 X112.149 Y140.065 E.1347
G1 X108.673 Y137.488 E.13567
G1 X105.385 Y134.789 E.13338
G1 X102.144 Y131.851 E.13716
G1 X99.127 Y128.835 E.13376
G1 X96.237 Y125.647 E.13492
G1 X93.508 Y122.322 E.13487
G1 X90.945 Y118.867 E.13488
G1 X88.555 Y115.291 E.13486
G1 X86.343 Y111.602 E.13487
G1 X84.314 Y107.808 E.1349
G1 X82.474 Y103.92 E.13487
G1 X80.827 Y99.946 E.13488
G1 X79.376 Y95.896 E.13489
G1 X78.126 Y91.78 E.13487
G1 X77.08 Y87.608 E.13486
G1 X76.239 Y83.389 E.13489
G1 X75.606 Y79.134 E.13488
G1 X75.221 Y75.246 E.1225
G1 E-3.5 F3600
;WIPE_START
G1 F7200
G1 X75.215 Y75.186 E-.02864
G1 X78.313 Y75.186 E-1.47136
;WIPE_END
G1 X154.942 Y97.376 F9000
G1 E5 F2400
;TYPE:Solid infill
;WIDTH:0.422084
G1 F1200
G1 X154.087 Y96.521 E.03812
G1 X153.292 Y96.263 E.02635
G1 X154.772 Y97.743 E.06599
G1 X154.772 Y98.279 E.0169
G1 X152.456 Y95.963 E.10326
G1 X151.62 Y95.663 E.028
G1 X154.772 Y98.815 E.14054
G1 X154.772 Y99.351 E.0169
G1 X150.719 Y95.298 E.18071
G1 X149.803 Y94.919 E.03125
G1 X154.772 Y99.888 E.22155
G1 X154.772 Y100.424 E.0169
G1 X148.832 Y94.483 E.26487
G1 X147.816 Y94.003 E.03543
G1 X154.772 Y100.96 E.31017
G1 X154.772 Y101.496 E.0169
G1 X146.726 Y93.45 E.35875
G1 X145.578 Y92.838 E.04102
G1 X154.772 Y102.032 E.40993
G1 X154.772 Y102.569 E.01693
G1 X144.28 Y92.076 E.46783
G1 X143.47 Y91.593 E.02973
G1 X142.846 Y91.179 E.02361
G1 X154.772 Y103.105 E.53174
G1 X154.772 Y103.641 E.0169
G1 X140.355 Y89.224 E.64281
G1 E-3.5 F3600
;WIPE_START
G1 F7200
G1 X142.588 Y91.457 E-1.5
;WIPE_END
G1 X128.973 Y76.77 F9000
G1 E5 F2400
G1 F1200
G1 X128.434 Y76.23 E.02405
G1 X127.898 Y76.23 E.0169
G1 X129.336 Y77.669 E.06414
G1 X130.475 Y79.344 E.06386
G1 X127.362 Y76.23 E.13882
G1 X126.825 Y76.23 E.01693
G1 X132.282 Y81.687 E.24331
G1 X133.273 Y82.878 E.04885
G1 X134.779 Y84.519 E.07022
G1 X136.372 Y86.096 E.07067
G1 X138.05 Y87.602 E.07109
G1 X138.842 Y88.247 E.0322
G1 X154.772 Y104.177 E.71027
G1 X154.772 Y104.713 E.0169
G1 X126.289 Y76.23 E1.26997
G1 X125.753 Y76.23 E.0169
G1 X154.772 Y105.25 E1.29389
G1 X154.772 Y105.786 E.0169
G1 X125.217 Y76.23 E1.31778
G1 X124.681 Y76.23 E.0169
G1 X154.772 Y106.322 E1.34168
G1 X154.772 Y106.858 E.0169
G1 X124.144 Y76.23 E1.3656
G1 X123.608 Y76.23 E.0169
G1 X154.772 Y107.395 E1.38952
G1 X154.772 Y107.931 E.0169
G1 X123.072 Y76.23 E1.41342
G1 X122.536 Y76.23 E.0169
G1 X154.772 Y108.467 E1.43732
G1 X154.772 Y109.003 E.0169
G1 X121.999 Y76.23 E1.46124
G1 X121.463 Y76.23 E.0169
G1 X154.772 Y109.539 E1.48514
G1 X154.772 Y110.076 E.01693
G1 X120.927 Y76.23 E1.50906
G1 X120.391 Y76.23 E.0169
G1 X154.772 Y110.612 E1.53296
G1 X154.772 Y111.148 E.0169
G1 X119.855 Y76.23 E1.55686
G1 X119.318 Y76.23 E.01693
G1 X154.772 Y111.684 E1.58078
G1 X154.772 Y112.221 E.01693
G1 X118.782 Y76.23 E1.6047
G1 X118.246 Y76.23 E.0169
G1 X154.772 Y112.757 E1.6286
G1 X154.772 Y113.293 E.0169
G1 X117.71 Y76.23 E1.6525
G1 X117.174 Y76.23 E.0169
G1 X154.772 Y113.829 E1.6764
G1 X154.772 Y114.365 E.0169
G1 X116.637 Y76.23 E1.70032
G1 X116.101 Y76.23 E.0169
G1 X154.772 Y114.902 E1.72424
G1 X154.772 Y115.438 E.0169
G1 X115.565 Y76.23 E1.74814
G1 X115.029 Y76.23 E.0169
G1 X154.772 Y115.974 E1.77203
G1 X154.772 Y116.51 E.0169
G1 X114.492 Y76.23 E1.79596
G1 X113.956 Y76.23 E.0169
G1 X154.772 Y117.047 E1.81988
G1 X154.772 Y117.583 E.0169
G1 X113.42 Y76.23 E1.84377
G1 X112.884 Y76.23 E.0169
G1 X154.772 Y118.119 E1.86767
G1 X154.772 Y118.655 E.0169
G1 X112.348 Y76.23 E1.89157
G1 X111.811 Y76.23 E.01693
G1 X154.772 Y119.191 E1.91549
G1 X154.772 Y119.728 E.01693
G1 X111.275 Y76.23 E1.93941
G1 X110.739 Y76.23 E.0169
G1 X154.772 Y120.264 E1.96331
G1 X154.772 Y120.8 E.0169
G1 X110.203 Y76.23 E1.98721
G1 X109.666 Y76.23 E.01693
G1 X154.772 Y121.336 E2.01113
G1 X154.772 Y121.872 E.0169
G1 X109.13 Y76.23 E2.03503
G1 X108.594 Y76.23 E.0169
G1 X154.772 Y122.409 E2.05895
G1 X154.772 Y122.945 E.0169
G1 X108.058 Y76.23 E2.08285
G1 X107.522 Y76.23 E.0169
G1 X154.772 Y123.481 E2.10675
G1 X154.772 Y124.017 E.0169
G1 X106.985 Y76.23 E2.13067
G1 X106.449 Y76.23 E.0169
G1 X154.772 Y124.554 E2.15459
G1 X154.772 Y125.09 E.0169
G1 X105.913 Y76.23 E2.17849
G1 X105.377 Y76.23 E.0169
G1 X154.772 Y125.626 E2.20239
G1 X154.772 Y126.162 E.0169
G1 X104.84 Y76.23 E2.22631
G1 X104.304 Y76.23 E.0169
G1 X154.772 Y126.698 E2.25021
G1 X154.772 Y127.235 E.01693
G1 X103.768 Y76.23 E2.27413
G1 X103.232 Y76.23 E.0169
G1 X154.772 Y127.771 E2.29803
G1 X154.772 Y128.307 E.0169
G1 X102.696 Y76.23 E2.32192
G1 X102.159 Y76.23 E.01693
G1 X154.772 Y128.843 E2.34584
G1 X154.772 Y129.38 E.01693
G1 X101.623 Y76.23 E2.36977
G1 X101.087 Y76.23 E.0169
G1 X154.772 Y129.916 E2.39366
G1 X154.772 Y130.452 E.0169
G1 X100.551 Y76.23 E2.41756
G1 X100.015 Y76.23 E.0169
G1 X154.772 Y130.988 E2.44146
G1 X154.772 Y131.524 E.0169
G1 X99.478 Y76.23 E2.46538
G1 X98.942 Y76.23 E.0169
G1 X154.772 Y132.061 E2.4893
G1 X154.772 Y132.597 E.0169
G1 X98.406 Y76.23 E2.5132
G1 X97.87 Y76.23 E.0169
G1 X154.772 Y133.133 E2.5371
G1 X154.772 Y133.669 E.0169
G1 X97.333 Y76.23 E2.56102
G1 X96.797 Y76.23 E.0169
G1 X154.772 Y134.206 E2.58494
G1 X154.772 Y134.742 E.0169
G1 X96.261 Y76.23 E2.60884
G1 X95.725 Y76.23 E.0169
G1 X154.772 Y135.278 E2.63274
G1 X154.772 Y135.814 E.0169
G1 X95.189 Y76.23 E2.65664
G1 X94.652 Y76.23 E.01693
G1 X154.772 Y136.35 E2.68056
G1 X154.772 Y136.887 E.01693
G1 X94.116 Y76.23 E2.70448
G1 X93.58 Y76.23 E.0169
G1 X154.772 Y137.423 E2.72838
G1 X154.772 Y137.959 E.0169
G1 X93.044 Y76.23 E2.75228
G1 X92.507 Y76.23 E.01693
G1 X154.772 Y138.495 E2.7762
G1 X154.772 Y139.031 E.0169
G1 X91.971 Y76.23 E2.80009
G1 X91.435 Y76.23 E.0169
G1 X154.772 Y139.568 E2.82402
G1 X154.772 Y140.104 E.0169
G1 X90.899 Y76.23 E2.84791
G1 X90.363 Y76.23 E.0169
G1 X154.772 Y140.64 E2.87181
G1 X154.772 Y141.176 E.0169
G1 X89.826 Y76.23 E2.89573
G1 X89.29 Y76.23 E.0169
G1 X154.772 Y141.713 E2.91965
G1 X154.772 Y142.249 E.0169
G1 X88.754 Y76.23 E2.94355
G1 X88.218 Y76.23 E.0169
G1 X154.772 Y142.785 E2.96745
G1 X154.772 Y143.321 E.0169
G1 X87.681 Y76.23 E2.99137
G1 X87.145 Y76.23 E.0169
G1 X154.772 Y143.857 E3.01527
G1 X154.772 Y144.394 E.01693
G1 X86.609 Y76.23 E3.03919
G1 X86.073 Y76.23 E.0169
G1 X154.772 Y144.93 E3.06309
G1 X154.772 Y145.466 E.0169
G1 X85.537 Y76.23 E3.08699
G1 X85 Y76.23 E.01693
G1 X154.772 Y146.002 E3.11091
G1 X154.772 Y146.539 E.01693
G1 X84.464 Y76.23 E3.13483
G1 X83.928 Y76.23 E.0169
G1 X154.772 Y147.075 E3.15873
G1 X154.772 Y147.611 E.0169
G1 X83.392 Y76.23 E3.18263
G1 X82.856 Y76.23 E.0169
G1 X154.772 Y148.147 E3.20653
G1 X154.772 Y148.683 E.0169
G1 X82.319 Y76.23 E3.23045
G1 X81.783 Y76.23 E.0169
G1 X154.772 Y149.22 E3.25437
G1 X154.772 Y149.756 E.0169
G1 X81.247 Y76.23 E3.27827
G1 X80.711 Y76.23 E.0169
G1 X154.772 Y150.292 E3.30216
G1 X154.772 Y150.828 E.0169
G1 X80.174 Y76.23 E3.32608
G1 X79.638 Y76.23 E.0169
G1 X154.772 Y151.365 E3.35001
G1 X154.772 Y151.901 E.0169
G1 X79.102 Y76.23 E3.3739
G1 X78.566 Y76.23 E.0169
G1 X154.772 Y152.437 E3.3978
G1 X154.772 Y152.973 E.0169
G1 X78.03 Y76.23 E3.4217
G1 X77.493 Y76.23 E.01693
G1 X154.772 Y153.509 E3.44562
G1 X154.772 Y154.046 E.01693
G1 X76.957 Y76.23 E3.46954
G1 X76.421 Y76.23 E.0169
G1 X154.772 Y154.582 E3.49344
G1 X154.772 Y154.629 E.00148
G1 X154.23 Y154.575 E.01717
G1 X76.421 Y76.767 E3.46923
G1 X76.48 Y77.362 E.01885
G1 X153.635 Y154.517 E3.44009
G1 X153.04 Y154.458 E.01885
G1 X76.539 Y77.957 E3.41093
G1 X76.598 Y78.552 E.01885
G1 X152.445 Y154.399 E3.38177
G1 X151.841 Y154.332 E.01916
G1 X76.665 Y79.156 E3.35186
G1 X76.759 Y79.786 E.02008
G1 X151.211 Y154.238 E3.31958
G1 X150.581 Y154.144 E.02008
G1 X76.853 Y80.416 E3.28729
G1 X76.946 Y81.046 E.02008
G1 X149.951 Y154.051 E3.25506
G1 X149.321 Y153.957 E.02008
G1 X77.04 Y81.675 E3.2228
G1 X77.134 Y82.305 E.02008
G1 X148.692 Y153.863 E3.19054
G1 X148.062 Y153.77 E.02008
G1 X77.227 Y82.935 E3.1583
G1 X77.343 Y83.588 E.02091
G1 X147.409 Y153.653 E3.124
G1 X146.739 Y153.52 E.02154
G1 X77.477 Y84.257 E3.08819
G1 X77.61 Y84.927 E.02154
G1 X146.07 Y153.387 E3.05241
G1 X145.4 Y153.253 E.02154
G1 X77.744 Y85.597 E3.01656
G1 X77.877 Y86.266 E.0215
G1 X144.731 Y153.12 E2.9808
G1 X144.061 Y152.986 E.02154
G1 X78.011 Y86.936 E2.94496
G1 X78.16 Y87.621 E.0221
G1 X143.375 Y152.837 E2.90775
G1 X142.66 Y152.657 E.02325
G1 X78.339 Y88.337 E2.86784
G1 X78.519 Y89.053 E.02328
G1 X141.944 Y152.478 E2.82792
G1 X141.228 Y152.298 E.02328
G1 X78.698 Y89.769 E2.78799
G1 X78.878 Y90.484 E.02325
G1 X140.513 Y152.119 E2.74811
G1 X139.797 Y151.94 E.02327
G1 X79.058 Y91.2 E2.70818
G1 X79.269 Y91.947 E.02447
G1 X139.049 Y151.728 E2.66542
G1 X138.279 Y151.494 E.02537
G1 X79.502 Y92.717 E2.62068
G1 X79.736 Y93.488 E.0254
G1 X137.508 Y151.26 E2.57587
G1 X136.738 Y151.025 E.02538
G1 X79.97 Y94.258 E2.53108
G1 X80.204 Y95.028 E.02537
G1 X135.968 Y150.791 E2.48632
G1 X135.18 Y150.54 E.02607
G1 X80.457 Y95.817 E2.43992
G1 X80.757 Y96.653 E.028
G1 X134.344 Y150.24 E2.38927
G1 X133.509 Y149.941 E.02796
G1 X81.056 Y97.488 E2.33871
G1 X81.355 Y98.323 E.02796
G1 X132.674 Y149.642 E2.28815
G1 X131.838 Y149.343 E.02799
G1 X81.654 Y99.159 E2.23754
G1 X81.994 Y100.035 E.02963
G1 X130.961 Y149.002 E2.18328
G1 X130.046 Y148.623 E.03122
G1 X82.374 Y100.951 E2.12554
G1 X82.753 Y101.867 E.03125
G1 X129.13 Y148.244 E2.0678
G1 X128.215 Y147.864 E.03124
G1 X83.133 Y102.783 E2.01004
G1 X83.535 Y103.721 E.03217
G1 X127.275 Y147.461 E1.95023
G1 X126.257 Y146.98 E.0355
G1 X84.017 Y104.739 E1.88337
G1 X84.499 Y105.757 E.03551
G1 X125.24 Y146.498 E1.81651
G1 X124.222 Y146.017 E.0355
