; generated by PrusaSlicer 2.8.0 on 2024-10-19 at 17:02:43 UTC

; 

; external perimeters extrusion width = 0.42mm
; perimeters extrusion width = 0.44mm
; infill extrusion width = 0.44mm
; solid infill extrusion width = 0.44mm
; top infill extrusion width = 0.40mm
; support material extrusion width = 0.36mm
; first layer extrusion width = 0.42mm

M201 X500 Y500 Z100 E5000 ; sets maximum accelerations, mm/sec^2
M203 X500 Y500 Z10 E60 ; sets maximum feedrates, mm / sec
M204 S500 T1000 ; sets acceleration (S) and retract acceleration (R), mm/sec^2
M205 X8.00 Y8.00 Z0.40 E5.00 ; sets the jerk limits, mm/sec
M205 S0 T0 ; sets the minimum extruding and travel feed rate, mm/sec

; printing object YellowBSimon.stl id:0 copy 0
; stop printing object YellowBSimon.stl id:0 copy 0

;TYPE:Custom
G90 ; use absolute coordinates
M83 ; extruder relative mode
M104 S150 ; set temporary nozzle temp to prevent oozing during homing
M140 S60 ; set final bed temp
G4 S30 ; allow partial nozzle warmup
G28 ; home all axis
G1 Z50 F240
G1 X2.0 Y10 F3000
M104 S210 ; set final nozzle temp
M190 S60 ; wait for bed temp to stabilize
M109 S210 ; wait for nozzle temp to stabilize
G1 Z0.28 F240
G92 E0
G1 X2.0 Y140 E10 F1500 ; prime the nozzle
G1 X2.3 Y140 F5000
G92 E0
G1 X2.3 Y10 E10 F1200 ; prime the nozzle
G92 E0
G21 ; set units to millimeters
G90 ; use absolute coordinates
M83 ; use relative distances for extrusion
; Filament gcode
M107
;LAYER_CHANGE
;Z:0.2
;HEIGHT:0.2
G1 E-5 F3600
G1 Z.2 F9000
G1 X98.347 Y98.438
G1 Z.2
G1 E5 F2400
M204 S500
;TYPE:Skirt/Brim
;WIDTH:0.42
G1 F1200
G1 X99.993 Y96.793 E.07296
G1 X103.302 Y93.792 E.14006
G1 X106.703 Y90.993 E.13811
G1 X110.276 Y88.33 E.13972
G1 X114.016 Y85.816 E.1413
G1 X117.769 Y83.549 E.13747
G1 X121.695 Y81.426 E.13994
G1 X125.715 Y79.498 E.13979
G1 X129.824 Y77.766 E.13981
G1 X134.012 Y76.235 E.13981
G1 X138.268 Y74.909 E.13977
G1 X142.584 Y73.79 E.1398
G1 X146.949 Y72.88 E.1398
G1 X151.503 Y72.163 E.14455
G1 X155.785 Y71.7 E.13504
G1 X157.354 Y71.927 E.04971
G1 X158.619 Y72.88 E.04966
G1 X159.316 Y74.87 E.06611
G1 X159.316 Y115.269 E1.26668
G1 X158.638 Y117.235 E.06521
G1 X126.641 Y158.096 E1.62723
G1 X125.385 Y159.062 E.04968
G1 X124.13 Y159.319 E.04017
G1 X74.873 Y159.319 E1.54442
G1 X73.338 Y158.925 E.04969
G1 X72.182 Y157.841 E.04969
G1 X71.703 Y155.788 E.0661
G1 X72.203 Y151.244 E.14333
G1 X72.882 Y146.952 E.13625
G1 X73.758 Y142.731 E.13517
G1 X74.91 Y138.272 E.1444
G1 X76.236 Y134.015 E.1398
G1 X77.767 Y129.828 E.13978
G1 X79.442 Y125.845 E.13548
G1 X81.426 Y121.699 E.14411
G1 X83.546 Y117.776 E.13981
G1 X85.853 Y113.961 E.13979
G1 X88.267 Y110.368 E.13572
G1 X91.007 Y106.687 E.14388
G1 X93.759 Y103.342 E.13581
G1 X96.886 Y99.898 E.14585
G1 X98.304 Y98.48 E.06288
G1 E-3.5 F3600
;WIPE_START
G1 F7200
G1 X98.347 Y98.438 E-.02855
G1 X99.993 Y96.793 E-1.10537
G1 X100.564 Y96.275 E-.36608
;WIPE_END
; printing object YellowBSimon.stl id:0 copy 0
G1 X155.063 Y114.485 F9000
G1 E5 F2400
;TYPE:Perimeter
;WIDTH:0.419999
G1 F1200
G1 X153.727 Y114.899 E.04385
G1 X151.673 Y115.647 E.06854
G1 X149.699 Y116.474 E.06711
G1 X147.726 Y117.415 E.06854
G1 X145.761 Y118.474 E.06999
G1 X143.927 Y119.579 E.06713
G1 X142.112 Y120.796 E.06852
G1 X140.321 Y122.129 E.07
G1 X138.667 Y123.488 E.06712
G1 X137.047 Y124.956 E.06855
G1 X135.454 Y126.549 E.07064
G1 X134 Y128.153 E.06788
G1 X132.64 Y129.806 E.06712
G1 X131.295 Y131.614 E.07065
G1 X130.088 Y133.412 E.0679
G1 X128.982 Y135.244 E.0671
G1 X127.923 Y137.209 E.06999
G1 X126.981 Y139.182 E.06855
G1 X126.136 Y141.198 E.06854
G1 X125.404 Y143.209 E.0671
G1 X124.756 Y145.297 E.06855
G1 X124.199 Y147.459 E.07
G1 X123.767 Y149.555 E.0671
G1 X123.429 Y151.715 E.06855
G1 X123.195 Y153.889 E.06856
G1 X123.126 Y155.066 E.03697
G1 X76.058 Y155.066 E1.47578
G1 X76.391 Y151.988 E.09707
G1 X77.053 Y147.785 E.13341
G1 X77.917 Y143.618 E.13343
G1 X78.982 Y139.498 E.13343
G1 X80.245 Y135.434 E.13344
G1 X81.703 Y131.437 E.1334
G1 X83.353 Y127.514 E.13344
G1 X85.207 Y123.646 E.13449
G1 X87.212 Y119.931 E.13236
G1 X89.412 Y116.289 E.13341
G1 X91.786 Y112.757 E.13343
G1 X94.328 Y109.344 E.13343
G1 X97.055 Y106.032 E.13452
G1 X99.891 Y102.907 E.13232
G1 X102.9 Y99.897 E.13345
G1 X106.051 Y97.037 E.13342
G1 X109.334 Y94.335 E.13332
G1 X112.773 Y91.774 E.13444
G1 X116.292 Y89.409 E.13294
G1 X119.881 Y87.241 E.13147
G1 X123.676 Y85.19 E.13526
G1 X127.513 Y83.352 E.1334
G1 X131.436 Y81.702 E.13344
G1 X135.433 Y80.244 E.1334
G1 X139.496 Y78.98 E.13341
G1 X143.616 Y77.915 E.13343
G1 X147.783 Y77.051 E.13343
G1 X151.986 Y76.389 E.13341
G1 X155.063 Y76.055 E.09704
G1 X155.063 Y79.085 E.095
G1 X155.063 Y114.425 E1.10806
G1 X155.063 Y114.425 F9000
G1 X155.44 Y114.763
G1 F1200
G1 X153.856 Y115.253 E.05199
G1 X151.819 Y115.994 E.06796
G1 X149.845 Y116.822 E.06712
G1 X147.888 Y117.756 E.06799
G1 X145.955 Y118.797 E.06884
G1 X144.122 Y119.902 E.06711
G1 X142.322 Y121.11 E.06797
G1 X140.56 Y122.42 E.06884
G1 X138.907 Y123.779 E.0671
G1 X137.3 Y125.235 E.06799
G1 X135.734 Y126.803 E.06948
G1 X134.291 Y128.393 E.06732
G1 X132.931 Y130.046 E.06712
G1 X131.608 Y131.824 E.06949
G1 X130.411 Y133.606 E.06731
G1 X129.305 Y135.439 E.06712
G1 X128.263 Y137.371 E.06883
G1 X127.329 Y139.328 E.06799
G1 X126.49 Y141.327 E.06797
G1 X125.758 Y143.338 E.0671
G1 X125.116 Y145.409 E.06798
G1 X124.569 Y147.535 E.06883
G1 X124.136 Y149.631 E.06711
G1 X123.801 Y151.773 E.06798
G1 X123.57 Y153.929 E.06799
G1 X123.482 Y155.443 E.04755
G1 X75.638 Y155.443 E1.50011
G1 X76.017 Y151.939 E.11051
G1 X76.682 Y147.717 E.13401
G1 X77.55 Y143.532 E.13401
G1 X78.619 Y139.395 E.13397
G1 X79.888 Y135.314 E.134
G1 X81.352 Y131.299 E.134
G1 X83.009 Y127.36 E.13399
G1 X84.871 Y123.475 E.13508
G1 X86.885 Y119.744 E.13294
G1 X89.094 Y116.086 E.13398
G1 X91.478 Y112.539 E.134
G1 X94.031 Y109.111 E.13402
G1 X96.769 Y105.786 E.13505
G1 X99.618 Y102.647 E.13291
G1 X102.64 Y99.624 E.13402
G1 X105.804 Y96.752 E.13398
G1 X109.101 Y94.038 E.13389
G1 X112.555 Y91.466 E.13502
G1 X116.089 Y89.091 E.1335
G1 X119.693 Y86.914 E.13202
G1 X123.505 Y84.853 E.13587
G1 X127.359 Y83.008 E.13397
G1 X131.298 Y81.351 E.13399
G1 X135.312 Y79.886 E.13398
G1 X139.393 Y78.618 E.13399
G1 X143.531 Y77.548 E.13401
G1 X147.715 Y76.68 E.13398
G1 X151.936 Y76.015 E.13398
G1 X155.44 Y75.635 E.11051
G1 X155.44 Y79.085 E.10817
G1 X155.44 Y114.703 E1.11678
G1 X155.44 Y114.703 F9000
G1 X155.817 Y115.041
;TYPE:External perimeter
G1 F1200
G1 X153.985 Y115.608 E.06013
G1 X151.965 Y116.342 E.06739
G1 X149.991 Y117.17 E.06712
G1 X148.051 Y118.096 E.0674
G1 X146.15 Y119.12 E.0677
G1 X144.317 Y120.225 E.06711
G1 X142.532 Y121.423 E.0674
G1 X140.8 Y122.711 E.06768
G1 X139.146 Y124.071 E.06714
G1 X137.554 Y125.515 E.06739
G1 X136.013 Y127.056 E.06833
G1 X134.582 Y128.633 E.06677
G1 X133.222 Y130.285 E.06709
G1 X131.921 Y132.034 E.06835
G1 X130.739 Y133.794 E.06647
G1 X129.628 Y135.634 E.06739
G1 X128.603 Y137.534 E.06769
G1 X127.68 Y139.465 E.06711
G1 X126.844 Y141.456 E.06771
G1 X126.113 Y143.467 E.06709
G1 X125.476 Y145.521 E.06743
G1 X124.938 Y147.611 E.06767
G1 X124.506 Y149.708 E.06713
G1 X124.174 Y151.832 E.06741
G1 X123.945 Y153.969 E.06739
G1 X123.838 Y155.82 E.05813
G1 X75.218 Y155.82 E1.52444
G1 X75.643 Y151.889 E.12397
G1 X76.311 Y147.649 E.13458
G1 X77.183 Y143.447 E.13456
G1 X78.257 Y139.292 E.13456
G1 X79.531 Y135.193 E.13459
G1 X81.001 Y131.161 E.13456
G1 X82.665 Y127.205 E.13456
G1 X84.535 Y123.303 E.13567
G1 X86.557 Y119.557 E.13347
G1 X88.776 Y115.883 E.13458
G1 X91.17 Y112.321 E.13456
G1 X93.734 Y108.879 E.13457
G1 X96.484 Y105.539 E.13565
G1 X99.345 Y102.386 E.13349
G1 X102.38 Y99.351 E.13458
G1 X105.557 Y96.467 E.13453
G1 X108.868 Y93.741 E.13447
G1 X112.337 Y91.158 E.13561
G1 X115.887 Y88.773 E.13409
G1 X119.506 Y86.586 E.13258
G1 X123.333 Y84.517 E.13641
G1 X127.204 Y82.664 E.13456
G1 X131.16 Y81 E.13456
G1 X135.192 Y79.529 E.13457
G1 X139.29 Y78.255 E.13456
G1 X143.445 Y77.181 E.13456
G1 X147.647 Y76.309 E.13456
G1 X151.887 Y75.641 E.13458
G1 X155.817 Y75.215 E.12394
G1 X155.817 Y79.085 E.12134
G1 X155.817 Y114.981 E1.12549
G1 E-3.5 F3600
;WIPE_START
G1 F7200
G1 X155.817 Y115.041 E-.0285
G1 X153.985 Y115.608 E-.91092
G1 X152.876 Y116.011 E-.56058
;WIPE_END
G1 X154.255 Y76.264 F9000
G1 E5 F2400
;TYPE:Solid infill
;WIDTH:0.420647
G1 F1200
G1 X154.773 Y76.782 E.02301
G1 X154.773 Y77.316 E.01677
G1 X153.927 Y76.47 E.03758
G1 X153.445 Y76.523 E.01523
G1 X154.773 Y77.85 E.05896
G1 X154.773 Y78.384 E.01677
G1 X152.963 Y76.575 E.08037
G1 X152.481 Y76.627 E.01523
G1 X154.773 Y78.918 E.10178
G1 X154.773 Y79.453 E.0168
G1 X152 Y76.68 E.12317
G1 X151.539 Y76.753 E.01466
G1 X154.773 Y79.987 E.14365
G1 X154.773 Y80.521 E.01677
G1 X151.077 Y76.826 E.16415
G1 X150.616 Y76.898 E.01465
G1 X154.773 Y81.055 E.18464
G1 X154.773 Y81.589 E.01677
G1 X150.154 Y76.971 E.20514
G1 X149.693 Y77.044 E.01466
G1 X154.773 Y82.124 E.22564
G1 X154.773 Y82.658 E.01677
G1 X149.231 Y77.116 E.24616
G1 X148.77 Y77.189 E.01466
G1 X154.773 Y83.192 E.26664
G1 X154.773 Y83.726 E.01677
G1 X148.308 Y77.262 E.28714
G1 X147.847 Y77.334 E.01465
G1 X154.773 Y84.26 E.30764
G1 X154.773 Y84.795 E.0168
G1 X147.404 Y77.426 E.32731
G1 X146.962 Y77.518 E.01418
G1 X154.773 Y85.329 E.34695
G1 X154.773 Y85.863 E.01677
G1 X146.519 Y77.609 E.36662
G1 X146.077 Y77.701 E.01418
G1 X154.773 Y86.397 E.38626
G1 X154.773 Y86.931 E.01677
G1 X145.635 Y77.793 E.40589
G1 X145.192 Y77.885 E.01421
G1 X154.773 Y87.465 E.42554
G1 X154.773 Y88 E.0168
G1 X144.75 Y77.977 E.4452
G1 X144.307 Y78.068 E.0142
G1 X154.773 Y88.534 E.46488
G1 X154.773 Y89.068 E.01677
G1 X143.865 Y78.16 E.48451
G1 X143.433 Y78.263 E.01395
G1 X154.773 Y89.602 E.50368
G1 X154.773 Y90.136 E.01677
G1 X143.009 Y78.372 E.52253
G1 X142.584 Y78.482 E.01379
G1 X154.773 Y90.671 E.54141
G1 X154.773 Y91.205 E.01677
G1 X142.16 Y78.592 E.56024
G1 X141.735 Y78.701 E.01378
G1 X154.773 Y91.739 E.57912
G1 X154.773 Y92.273 E.01677
G1 X141.311 Y78.811 E.59795
G1 X140.887 Y78.921 E.01376
G1 X154.773 Y92.807 E.61679
G1 X154.773 Y93.342 E.0168
G1 X140.462 Y79.031 E.63566
G1 X140.038 Y79.14 E.01375
G1 X154.773 Y93.876 E.65452
G1 X154.773 Y94.41 E.01677
G1 X139.613 Y79.25 E.67337
G1 X139.204 Y79.375 E.01343
G1 X154.773 Y94.944 E.69154
G1 X154.773 Y95.478 E.01677
G1 X138.797 Y79.502 E.70962
G1 X138.389 Y79.629 E.01342
G1 X154.773 Y96.012 E.72772
G1 X154.773 Y96.547 E.0168
G1 X137.982 Y79.755 E.74584
G1 X137.574 Y79.882 E.01342
G1 X154.773 Y97.081 E.76394
G1 X154.773 Y97.615 E.01677
G1 X137.167 Y80.009 E.78202
G1 X136.759 Y80.135 E.01341
G1 X154.773 Y98.149 E.80014
G1 X154.773 Y98.683 E.01677
G1 X136.352 Y80.262 E.81822
G1 X135.944 Y80.389 E.01342
G1 X154.773 Y99.218 E.83634
G1 X154.773 Y99.752 E.01677
G1 X135.537 Y80.516 E.85442
G1 X135.145 Y80.658 E.01309
G1 X154.773 Y100.286 E.87183
G1 X154.773 Y100.82 E.01677
G1 X134.753 Y80.801 E.88922
G1 X134.362 Y80.943 E.01307
G1 X154.773 Y101.354 E.90661
G1 X154.773 Y101.889 E.0168
G1 X133.971 Y81.086 E.924
G1 X133.579 Y81.229 E.01311
G1 X154.773 Y102.423 E.94139
G1 X154.773 Y102.957 E.01677
G1 X133.188 Y81.372 E.95876
G1 X132.796 Y81.515 E.01311
G1 X154.773 Y103.491 E.97615
G1 X154.773 Y104.025 E.01677
G1 X132.405 Y81.657 E.99354
G1 X132.014 Y81.8 E.01308
G1 X154.773 Y104.559 E1.0109
G1 X154.773 Y105.094 E.0168
G1 X131.622 Y81.943 E1.02832
G1 X131.243 Y82.098 E.01286
G1 X154.773 Y105.628 E1.04515
G1 X154.773 Y106.162 E.01677
G1 X130.867 Y82.256 E1.06185
G1 X130.491 Y82.414 E.01281
G1 X154.773 Y106.696 E1.07855
G1 X154.773 Y107.23 E.01677
G1 X130.115 Y82.572 E1.09525
G1 X129.739 Y82.731 E.01282
G1 X154.773 Y107.765 E1.11196
G1 X154.773 Y108.299 E.01677
G1 X129.363 Y82.889 E1.12866
G1 X128.987 Y83.047 E.01281
G1 X154.773 Y108.833 E1.14536
G1 X154.773 Y109.367 E.01677
G1 X128.611 Y83.205 E1.16206
G1 X128.235 Y83.363 E.01281
G1 X154.773 Y109.901 E1.17876
G1 X154.773 Y110.435 E.01677
G1 X127.859 Y83.522 E1.19544
G1 X127.489 Y83.686 E.01271
G1 X154.773 Y110.97 E1.2119
G1 X154.773 Y111.504 E.01677
G1 X127.128 Y83.859 E1.22793
G1 X126.766 Y84.032 E.0126
G1 X154.773 Y112.038 E1.24399
G1 X154.773 Y112.572 E.01677
G1 X126.405 Y84.205 E1.26002
G1 X126.044 Y84.377 E.01256
G1 X154.773 Y113.106 E1.27608
G1 X154.773 Y113.641 E.0168
G1 X125.683 Y84.55 E1.29214
G1 X125.322 Y84.723 E.01257
G1 X154.773 Y114.175 E1.30817
G1 X154.773 Y114.271 E.00302
G1 X154.438 Y114.375 E.01102
G1 X124.96 Y84.896 E1.30937
G1 X124.599 Y85.069 E.01257
G1 X154.031 Y114.501 E1.3073
G1 X153.623 Y114.628 E.01342
G1 X124.238 Y85.242 E1.30524
G1 X123.877 Y85.415 E.01257
G1 X153.232 Y114.77 E1.30388
G1 X152.84 Y114.913 E.01311
G1 X123.527 Y85.6 E1.30202
G1 X123.18 Y85.787 E.01238
G1 X152.449 Y115.056 E1.30006
G1 X152.057 Y115.198 E.01309
G1 X122.834 Y85.975 E1.29802
G1 X122.487 Y86.162 E.01238
G1 X151.665 Y115.341 E1.29604
G1 X151.285 Y115.495 E.01288
G1 X122.14 Y86.35 E1.29456
G1 X121.793 Y86.537 E.01238
G1 X150.909 Y115.653 E1.29327
G1 X150.533 Y115.811 E.01281
G1 X121.447 Y86.725 E1.29194
G1 X121.1 Y86.912 E.01238
G1 X150.157 Y115.969 E1.29065
G1 X149.78 Y116.127 E.01284
G1 X120.753 Y87.1 E1.28932
G1 X120.406 Y87.287 E.01238
G1 X149.409 Y116.29 E1.28825
G1 X149.048 Y116.462 E.01256
G1 X120.06 Y87.474 E1.28758
G1 X119.725 Y87.674 E.01225
G1 X148.686 Y116.635 E1.28638
G1 X148.325 Y116.808 E.01257
G1 X119.392 Y87.875 E1.28514
G1 X119.059 Y88.077 E.01223
G1 X147.963 Y116.98 E1.28383
G1 X147.602 Y117.153 E.01257
G1 X118.726 Y88.278 E1.28259
G1 X118.393 Y88.479 E.01222
G1 X147.254 Y117.34 E1.28194
G1 X146.907 Y117.527 E.01238
G1 X118.06 Y88.68 E1.28132
G1 X117.727 Y88.881 E.01222
G1 X146.56 Y117.714 E1.2807
G1 X146.213 Y117.901 E.01238
G1 X117.394 Y89.082 E1.28008
G1 X117.061 Y89.284 E.01223
G1 X145.865 Y118.088 E1.27941
G1 X145.522 Y118.279 E.01233
G1 X116.728 Y89.485 E1.27897
G1 X116.397 Y89.688 E.0122
G1 X145.189 Y118.48 E1.27888
G1 X144.856 Y118.68 E.0122
G1 X116.078 Y89.903 E1.27823
G1 X115.758 Y90.117 E.01209
G1 X144.522 Y118.881 E1.27763
G1 X144.189 Y119.082 E.01222
G1 X115.439 Y90.332 E1.27701
G1 X115.119 Y90.547 E.01211
G1 X143.856 Y119.283 E1.27641
G1 X143.533 Y119.494 E.01212
G1 X114.8 Y90.762 E1.27623
G1 X114.48 Y90.976 E.01209
G1 X143.213 Y119.709 E1.27626
G1 X142.893 Y119.923 E.01209
G1 X114.161 Y91.191 E1.27621
G1 X113.841 Y91.406 E.01211
G1 X142.573 Y120.137 E1.27619
G1 X142.253 Y120.352 E.01211
G1 X113.522 Y91.62 E1.27619
G1 X113.202 Y91.835 E.01211
G1 X141.934 Y120.567 E1.27621
G1 X141.628 Y120.795 E.01199
G1 X112.885 Y92.052 E1.2767
G1 X112.579 Y92.28 E.01199
G1 X141.322 Y121.023 E1.2767
G1 X141.015 Y121.25 E.01199
G1 X112.273 Y92.508 E1.27666
G1 X111.967 Y92.736 E.01199
G1 X140.709 Y121.478 E1.27666
G1 X140.403 Y121.706 E.01199
G1 X111.661 Y92.964 E1.27666
G1 X111.354 Y93.192 E.01201
G1 X140.098 Y121.936 E1.27675
G1 X139.805 Y122.177 E.01192
G1 X111.048 Y93.42 E1.27732
G1 X110.742 Y93.648 E.01199
G1 X139.512 Y122.418 E1.2779
G1 X139.219 Y122.659 E.01192
G1 X110.436 Y93.876 E1.27848
G1 X110.13 Y94.104 E.01199
G1 X138.925 Y122.9 E1.27903
G1 X138.632 Y123.141 E.01192
G1 X109.824 Y94.332 E1.27961
G1 X109.517 Y94.56 E.01201
G1 X138.345 Y123.388 E1.28048
G1 X138.065 Y123.642 E.01187
G1 X109.224 Y94.801 E1.28105
G1 X108.931 Y95.042 E.01192
G1 X137.785 Y123.896 E1.28163
G1 X137.505 Y124.15 E.01187
G1 X108.638 Y95.284 E1.28219
G1 X108.345 Y95.525 E.01192
G1 X137.224 Y124.404 E1.28274
G1 X136.944 Y124.658 E.01187
G1 X108.052 Y95.766 E1.28332
G1 X107.759 Y96.007 E.01192
G1 X136.672 Y124.92 E1.28425
G1 X136.405 Y125.188 E.01188
G1 X107.466 Y96.248 E1.28543
G1 X107.173 Y96.49 E.01194
G1 X136.138 Y125.455 E1.28656
G1 X135.871 Y125.722 E.01186
G1 X106.88 Y96.731 E1.28772
G1 X106.587 Y96.972 E.01192
G1 X135.604 Y125.989 E1.28887
G1 X135.337 Y126.256 E.01186
G1 X106.294 Y97.213 E1.29003
G1 X106.012 Y97.465 E.01188
G1 X135.079 Y126.532 E1.29109
G1 X134.825 Y126.812 E.01187
G1 X105.732 Y97.719 E1.29225
G1 X105.452 Y97.973 E.01187
G1 X134.571 Y127.092 E1.2934
G1 X134.317 Y127.372 E.01187
G1 X105.172 Y98.227 E1.29456
G1 X104.892 Y98.482 E.01189
G1 X134.063 Y127.652 E1.29569
G1 X133.808 Y127.933 E.01192
G1 X104.612 Y98.736 E1.29684
G1 X104.332 Y98.99 E.01187
